!!!!SEGMENT: pl-sa--159-a-iv-9--006_luna-georgius--vesperae-ex-d-magnificat.krn
!!!cenid: 17xx:464
!!!COM: Luna, Georgius
!!!COM-rismid: pe41010079
!!!CDT:
!!!CNT:
!!!OPR: Vesperae ex D
!!!OTL: Magnificat
!!!OMV: 006
!!!PDT:
!!!AGN: Sacred; Vespers
!!!SMS-siglum: PL-SA
!!!SMS-shelfmark: 159/A IV 9
!!!SMS-shelfwork: 001-006 M
!!!SMS-variant:
!!!SMS-altvar:
!!!NIFC-rismid: 1001070706
!!!URL-scan: http://bc.bdsandomierz.pl/dlibra/publication/1545/edition/1513/content
!!!ONB-nifc: UWAGA: części Vesperae: Dixit Dominus, Laudate pueri, Laetatus sum, Nisi Dominus, Lauda Jerusalem, Magnificat. UWAGA: brak partii clarino 1, clarino 2
**kern	**dynam	**kern	**dynam	**kern	**dynam	**kern	**text	**kern	**text
*part5	*part5	*part4	*part4	*part3	*part3	*part2	*part2	*part1	*part1
*	*	*group2	*	*group2	*	*group1	*	*group1	*
*staff5	*	*staff4	*	*staff3	*	*staff2	*staff2	*staff1	*staff1
*Iempty	*	*Ivioln	*	*Ivioln	*	*Itenor	*	*Ivox	*
*I"Fondameto	*	*I"Violino Secundo	*	*I"Violino Primo	*	*I"Tenore	*	*I"Canto	*
*I'Fund.	*	*I'V-no II	*	*I'V-no I	*	*I'T.	*	*I'C.	*
*clefF4	*	*clefG2	*	*clefG2	*	*clefC4	*	*clefC1	*
*Trd0c0	*	*	*	*	*	*	*	*	*
*k[f#c#]	*	*k[f#c#]	*	*k[f#c#]	*	*k[f#c#]	*	*k[f#c#]	*
*D:	*	*D:	*	*D:	*	*D:	*	*D:	*
*M4/4	*	*M4/4	*	*M4/4	*	*M4/4	*	*M4/4	*
*met(c)	*	*met(c)	*	*met(c)	*	*met(c)	*	*met(c)	*
=1	=1	=1	=1	=1	=1	=1	=1	=1	=1
!LO:TX:a:t=adagio	!	!LO:TX:a:t=adagio	!	!LO:TX:a:t=adagio	!	!LO:TX:a:t=adagio	!	!LO:TX:a:t=adagio	!
!	!	!	!	!	!	!LO:TX:a:t=P:problem:przy kluczu jeden krzyżyk nad drugim	!	!LO:TX:a:t=P:problem:przy kluczu jeden krzyżyk nad drugim, cis oktawę wyżej	!
4r	.	4r	.	4r	.	4r	.	4r	.
4D\	.	4ff#\	.	4ddd\	.	4d\	Ma-	4ff#\	Ma-
4A\	.	8.dd\L	.	8.ff#\L	.	4d\	-gni-	4ff#\	-gni-
.	.	16ff#\K	.	16ddd\K	.	.	.	.	.
4AA/	.	8.cc#\	.	8.ee\	.	4c#\	-fi-	4ee\	-fi-
.	.	16ee\Jk	.	16ccc#\Jk	.	.	.	.	.
=2	=2	=2	=2	=2	=2	=2	=2	=2	=2
4D\	.	4ff#\	.	4ddd\	.	4d\	-cat	4ff#\	-cat
4D#X\	.	[4ff#\	.	[4aa\	.	4A\	a-	4ff#\	a-
4cn\	.	8ff#\L]	.	8aa\L]	.	8A\	-ni-	8dd#X\	-ni-
.	.	8aa\	.	8cccn\	.	8A\	-ma	8dd#\	-ma
4D#X\	.	8gg\	.	8bb\	.	4A\	me-	4ff#\	me-
.	.	8ff#\J	.	8aa\J	.	.	.	.	.
=3	=3	=3	=3	=3	=3	=3	=3	=3	=3
.	.	.	.	8qqaa/	.	.	.	.	.
4E\	.	4b\	.	4gg\	.	4G\	-a	4ee\	-a
4E#X\	.	[4gg#X\	.	[4bb\	.	4B\	a-	4gg#X\	a-
4d\	.	8gg#\L]	.	8bb\L]	.	8B\	-ni-	8ee#X\	-ni-
.	.	8bb\	.	8ddd\	.	8B\	-ma	8ee#\	-ma
4E#X\	.	8aa#X\	.	8ccc#\	.	4B\	me-	4gg#X\	me-
.	.	8gg#X\J	.	8bb\J	.	.	.	.	.
=4	=4	=4	=4	=4	=4	=4	=4	=4	=4
4F#\	.	4cc#\	.	4aa#X\	.	4A#X\	-a	4ff#\	-a
*	*	*2\right	*	*	*	*	*	*	*
4r	.	2ff#\	.	4r	.	4f#\	Do-	4r	.
*2\right	*	*	*	*2\right	*	*	*	*2\right	*
[2F#\	.	.	.	(2ggn\	.	4f#\	.	2ggn\	Do-
.	.	[4ee\	.	.	.	[4e\	.	.	.
=5	=5	=5	=5	=5	=5	=5	=5	=5	=5
2F#\]	.	4ee\]	.	2ff#\)	.	4e\]	.	2ff#\	.
*	*	*	*	*	*	*2\right	*	*	*
.	.	2dd\	.	.	.	2d\	.	.	.
2F#\	.	.	.	2ee\	.	.	.	2ee\	.
.	.	4cc#\	.	.	.	4c#\	.	.	.
=6	=6	=6	=6	=6	=6	=6	=6	=6	=6
4BB/	.	8b\L	.	8dd\L	.	8B\L	.	8dd\L	.
.	.	8ee\	.	8gg\	.	8e\	.	8gg\	.
4E\	.	8dd\	.	8ff#\	.	8d\	.	8ff#\	.
.	.	8cc#\J	.	8ee\J	.	8c#\J	.	8ee\J	.
4F#\	.	4b\	.	4dd\	.	4B\	.	4dd\	.
!	!	!	!	!LO:TX:a:t=P:problem:niejednoznaczny zapis ozdobnika [przyjęto tryl]:global	!	!	!	!LO:TX:a:t=P:problem:niejednoznaczny zapis ozdobnika [przyjęto tryl]:global	!
4FF#/	.	4a#X\	.	4cc#t\	.	4A#X\	-mi-	4cc#t\	-mi-
=7	=7	=7	=7	=7	=7	=7	=7	=7	=7
4BB/	.	4b\	.	4b\	.	4B\	-num	4dd\	-num
4E\	.	4b\	.	2gg\	.	4e\	a-	4gg\	a-
4C#\	.	4ee\	.	.	.	4e\	-ni-	4gg\	-ni-
4D\	.	4dd\	.	4ff#\	.	4d\	-ma	4ff#\	-ma
=8	=8	=8	=8	=8	=8	=8	=8	=8	=8
4A\	.	4cc#\	.	4ee\	.	4c#\	me-	4ee\	me-
4D\	.	2dd\	.	4ff#\	.	4d\	-a	4ff#\	-a
!	!	!	!	!	!	!	!	!LO:LB:g=original	!
4A\	.	.	.	2ee\	.	4.c#\	do-	4.ee\	Do-
4AA/	.	4cc#\	.	.	.	.	.	.	.
.	.	.	.	.	.	8c#\	-mi-	8ee\	-mi-
!	!	!	!	!	!	!LO:LB:g=original	!	!	!
=9	=9	=9	=9	=9	=9	=9	=9	=9	=9
!LO:TX:a:t=allo	!	!LO:TX:a:t=allo	!	!	!	!LO:TX:a:t=Allo	!	!LO:TX:a:t=allo	!
8D\L	.	8dd\	.	8ff#\L	.	8d\	-num	8ff#\	-num
8D\	.	4ff#\	.	8ddd\	.	8d\	et	8ff#\	Et
8F#\	.	.	.	8aa\	.	8f#\	ex-	8aa\	ex-
8A\J	.	8ee\	.	8gg\J	.	8e\	-ul-	8gg\	-ul-
8d\L	.	8dd\	.	8ff#\L	.	8d\	-ta-	8ff#\	-ta-
8D\	.	4ff#\	.	8ddd\	.	8d\	-vit	8ff#\	-vit
8F#\	.	.	.	8aa\	.	8f#\	Spi-	8aa\	Spi-
8A\J	.	8ee\	.	8gg\J	.	16e\	-ri-	16gg\	-ri-
.	.	.	.	.	.	16e\	-tuſ	16gg\	-tus
=10	=10	=10	=10	=10	=10	=10	=10	=10	=10
8d\L	.	8dd\L	.	8ff#\L	.	8d\	me-	8ff#\	me-
8D\	.	8ff#\	.	16ddd\L	.	8d\	-uſ	8ff#\	-us
.	.	.	.	16aa\JJ	.	.	.	.	.
8C#\	.	8ee\	.	8gg\L	.	8e\	Spi-	8gg\	Spi-
8D\J	.	8dd\J	.	8ff#\J	.	16d\	-ri-	16ff#\	-ri-
.	.	.	.	.	.	16d\	-tuſ	16ff#\	-tuſ
!LO:TX:a:t=P:problem:mixed beam	!	!	!LO:LB:g=original	!	!	!	!	!	!
8A\L	.	8dd\L	.	8ff#\L	.	8d\	me-	8ff#\	me-
8AA/	.	8cc#\	.	8ee\J	.	8c#\	-uſ	8ee\	-uſ
8C#/	.	8ee\	.	8.aaT\L	.	4A\	in	4cc#\	in
8D/J	.	8ff#\J	.	.	.	.	.	.	.
.	.	.	.	(32gg#X\LL	.	.	.	.	.
.	.	.	.	32aa\JJJ)	.	.	.	.	.
!	!	!LO:LB:g=original	!	!	!	!	!	!	!
=11	=11	=11	=11	=11	=11	=11	=11	=11	=11
*	*	*	*	*Xtuplet	*	*	*	*	*
8E\L	.	8b\L	.	24gg#X\LL	.	4G#X\	De-	8b\L	De-
.	.	.	.	24ff#\	.	.	.	.	.
.	.	.	.	24ee\JJ	.	.	.	.	.
8E\	.	8g#X\	.	16bb\LL	.	.	.	8cc#\J	.
.	.	.	.	16cc#\JJ	.	.	.	.	.
8F#\	.	8a\	.	4ddT\	.	8A\L	.	4dd\	.
8G#X\J	.	8b\J	.	.	.	8B\J	.	.	.
!LO:TX:a:t=P:problem:mixed beam	!	!LO:TX:a:t=P:problem:mixed beam	!	!LO:TUP:a:problem:klamra łukowa	!	!	!	!	!
8A\L	.	8e/L	.	24cc#\LL	.	4A\	-o	4cc#\	-o
.	.	.	.	24b\	.	.	.	.	.
.	.	.	.	24a\JJ	.	.	.	.	.
!	!	!	!	!LO:TUP:a:problem:klamra łukowa	!	!	!	!	!
8AA/	.	8cc#\	.	24ee\LL	.	.	.	.	.
.	.	.	.	24dd\	.	.	.	.	.
.	.	.	.	24cc#\JJ	.	.	.	.	.
8C#/	.	8ee\	.	4aa\	.	8A\	Sa-	8cc#\	Sa-
8D/J	.	8ff#\J	.	.	.	8A\	-lu-	8cc#\	-lu-
=12	=12	=12	=12	=12	=12	=12	=12	=12	=12
*	*	*	*	*tuplet	*	*	*	*	*
8E\L	.	8b\L	.	24gg#X\LL	.	8G#X\	-ta-	8b\	-ta-
.	.	.	.	24ff#\	.	.	.	.	.
.	.	.	.	24ee\JJ	.	.	.	.	.
8E\	.	8g#X\	.	16bb\LL	.	8G#\	-ri	8cc#\	-ri
.	.	.	.	16cc#\JJ	.	.	.	.	.
8F#\	.	8a\	.	4ddT\	.	8A\L	me-	4dd\	me-
8G#X\J	.	8b\J	.	.	.	8B\J	.	.	.
8A\L	.	8a\L	.	8cc#\L	.	8A\	-o	8cc#\	-o
8c#\	.	8a\	.	16aa\L	.	8A\	Sa-	8ee\	Sa-
.	.	.	.	16ee\JJ	.	.	.	.	.
8d\	.	8a\	.	16ff#\LL	.	4A\	.	4ff#\	.
.	.	.	.	16dd\	.	.	.	.	.
8B\J	.	8dd\J	.	16aa\	.	.	.	.	.
.	.	.	.	16ff#\JJ	.	.	.	.	.
!LO:LB:g=original	!	!	!	!	!	!	!	!LO:LB:g=original	!
=13	=13	=13	=13	=13	=13	=13	=13	=13	=13
8c#\L	.	8a\L	.	16ee\LL	.	8A\L	.	4ee\	.
.	.	.	.	16cc#\	.	.	.	.	.
8A\	.	8cc#\	.	16aa\	.	8c#\J	.	.	.
.	.	.	.	16ee\JJ	.	.	.	.	.
8B\	.	8g#X\	.	16dd\LL	.	8G#X\L	-lu-	4dd\	-lu-
.	.	.	.	16b\	.	.	.	.	.
8G#X\J	.	8b\J	.	16bb\	.	8B\J	.	.	.
.	.	.	.	16dd\JJ	.	.	.	.	.
!	!	!	!	!	!	!LO:LB:g=original	!	!	!
8A\L	.	8a/	.	8cc#\L	.	8A\	-ta-	8cc#\	-ta-
8C#\	.	4a/	.	16b\L	.	8A\	-ri	16b\LL	-ri
.	.	.	.	16a\JJ	.	.	.	16a\JJ	.
8D\	.	.	.	4bT\	.	4G#X/	me-	4bT\	me-
8E\J	.	8g#X/	.	.	.	.	.	.	.
=14	=14	=14	=14	=14	=14	=14	=14	=14	=14
4AA/	.	4a/	.	8a\L	.	4A\	-o-	8a\	-o
.	.	.	.	8ee\	.	.	.	8ee\	qui-
4r	.	4r	.	8cc#\	.	4r	.	8cc#\	-a
.	.	.	.	8b\J	.	.	.	8b\	reſ-
8r	.	8r	.	8a\L	.	8r	.	4a\	-pex-
8AA/L	.	8cc#\L	.	8gg\J	.	8c#\	reſ-	.	.
8BB/	.	8dd\	.	4ggT\	.	8d\L	-pe-	4ggn\	.
8C#/J	.	8ee\J	.	.	.	8e\J	.	.	.
=15	=15	=15	=15	=15	=15	=15	=15	=15	=15
8D\L	.	16a\LL	.	8ff#\L	.	8A\	-xit	8ff#\	-it
.	.	16ff#\	.	.	.	.	.	.	.
8D\J	.	16ff#\	.	16ddd\L	.	8A\	hu-	8ff#\	hu-
.	.	16ff#\JJ	.	16ddd\JJ	.	.	.	.	.
16D\LL	.	16ff#\LL	.	16ddd\LL	.	8A\	-mi-	8ff#\	-mi-
16E\	.	16ff#\	.	16ddd\	.	.	.	.	.
16F#\	.	16ff#\	.	16ddd\	.	8A\	-li-	8ff#\	-li-
16G\JJ	.	16ff#\JJ	.	16ddd\JJ	.	.	.	.	.
*	*	*	*	*Xtuplet	*	*	*	*	*
!LO:TX:a:t=P:problem:mixed beam	!	!&colon;global	!	!LO:TX:a:t=P:problem:mixed beam	!	!	!	!	!
8A\L	.	24ee\LL	.	24ccc#\LL	.	8c#\	-ta-	8ee\	-ta-
.	.	24dd\	.	24bb\	.	.	.	.	.
.	.	24cc#\J	.	24aa\J	.	.	.	.	.
8AA/J	.	8cc#\J	.	8cc#/J	.	16c#\	-tem	16ee\	-tem
.	.	.	.	.	.	16c#\	an-	16ee\	an-
16D\LL	.	16ff#\LL	.	16ddd\LL	.	8A\	-cil-	8ff#\	-cil-
16E\	.	16ff#\	.	16ddd\	.	.	.	.	.
16F#\	.	16ff#\	.	16ddd\	.	8A\	-le	8ff#\	-le
16G\JJ	.	16ff#\JJ	.	16ddd\JJ	.	.	.	.	.
!	!	!	!	!LO:LB:g=original	!	!	!	!	!
=16	=16	=16	=16	=16	=16	=16	=16	=16	=16
*	*	*Xtuplet	*	*	*	*	*	*	*
!	!	!	!	!LO:TX:a:t=P:problem:mixed beam	!	!	!	!	!
8A\L	.	24ee\LL	.	24ccc#\LL	.	8c#\	Su-	8ee\	Su-
.	.	24dd\	.	24bb\	.	.	.	.	.
.	.	24cc#\J	.	24aa\J	.	.	.	.	.
8A\	.	8cc#\J	.	8cc#/J	.	8c#\	-ae	8ee\	-ae
8A\	.	16a\LL	.	16a\LL	.	8c#\	ec-	8ee\	ec-
.	.	16b\	.	16b\	.	.	.	.	.
8A\J	.	16cc#\	.	16cc#\	.	8c#\	-ce	8ee\	-ce
.	.	16dd\JJ	.	16dd\JJ	.	.	.	.	.
!LO:TX:a:t=P:problem:mixed beam	!	!	!	!LO:TUP:a:problem:klamra łukowa	!	!	!	!	!
8A\L	.	8cc#\L	.	24ee\LL	.	8c#\	e-	8ee\	e-
.	.	.	.	24dd\	.	.	.	.	.
.	.	.	.	24cc#\JJ	.	.	.	.	.
!	!	!	!	!LO:TUP:a:problem:klamra łukowa	!	!	!	!	!
8AA/	.	8cc#\	.	24cc#\LL	.	16c#\	-nim	16ee\	-nim
.	.	.	.	24b\	.	.	.	.	.
.	.	.	.	.	.	16c#\	ex	16ee\	ex
.	.	.	.	24a\JJ	.	.	.	.	.
8BB/	.	8dd\	.	4ggT\	.	8d\	hoc	8gg\	hoc
8C#/J	.	8ee\J	.	.	.	8e\	be-	8gg\	be-
!	!	!	!	!	!	!	!	!LO:LB:g=original	!
=17	=17	=17	=17	=17	=17	=17	=17	=17	=17
8D\L	.	8a\	.	8aa\L	.	8d\	-a-	8ff#\	-a-
8F#\	.	4dd\	.	16ddd\L	.	16A\	-tam	16ff#\	-tam
.	.	.	.	16ccc#\JJ	.	16A\	me-	16ff#\	me-
8G\	.	.	.	16bb\LL	.	8e\	-di-	8gg\	-di-
.	.	.	.	16gg\	.	.	.	.	.
8G\J	.	8b\	.	16ee\	.	8d\	-cent	8ff#\	-cent
.	.	.	.	16dd\JJ	.	.	.	.	.
!LO:TX:a:t=P:problem:mixed beam	!	!	!	!	!	!	!	!	!
8A\L	.	4e/	.	16cc#\LL	.	8c#\	om-	8ee\	om-
.	.	.	.	16b\J	.	.	.	.	.
8AA/	.	.	.	8a\J	.	8c#\	-neſ	8ee\	-neſ
!	!	!LO:TUP:a:problem:klamra łukowa	!	!LO:TUP:a:problem:klamra łukowa	!	!LO:PB:g=original	!	!	!
8AA/	.	24a\LL	.	24cc#\LL	.	8c#\	.	8ee\	ge-
.	.	24b\	.	24dd\	.	.	.	.	.
.	.	24cc#\JJ	.	24ee\JJ	.	.	.	.	.
!	!	!LO:TUP:a:problem:klamra łukowa	!	!LO:TUP:a:problem:klamra łukowa	!	!	!	!	!
8AA/J	.	24cc#\LL	.	24ee\LL	.	8c#\	gene-	8ee\	-ne-
.	.	24dd\	.	24ff#\	.	.	.	.	.
.	.	24ee\JJ	.	24gg\JJ	.	.	.	.	.
!	!	!LO:LB:g=original	!	!	!	!	!	!	!
=18	=18	=18	=18	=18	=18	=18	=18	=18	=18
!LO:TX:a:t=P:problem:mixed beam	!	!	!	!	!	!	!	!	!
.	.	.	.	8qqgg/	.	.	.	.	.
8D\L	.	8dd\L	.	8ff#\L	.	8d\	-ra-	8ff#\	-ra-
8G\	.	8b\J	.	16ee\L	.	8B\	-ti-	16ee\LL	-ti-
.	.	.	.	16dd\JJ	.	.	.	16dd\JJ	.
!	!	!LO:TX:a:t=P:problem:niejednoznaczny zapis ozdobnika [przyjęto tryl]:global	!	!	!	!	!	!	!
8A\	.	4eT/	.	4cc#t\	.	4E/	o-	4cc#t\	-o-
8AA/J	.	.	.	.	.	.	.	.	.
!	!	!LO:TX:a:t=P:problem:mixed beam	!	!	!	!	!	!	!
4D\	.	8f#/L	.	8dd\L	.	4F#/	-nes	4dd\	-nes
.	.	(>32dd\LL	.	(32dd\LL	.	.	.	.	.
.	.	32ee\	.	32ee\	.	.	.	.	.
.	.	32ff#\	.	32ff#\	.	.	.	.	.
.	.	32gg\JJJ)	.	32gg\JJJ)	.	.	.	.	.
8r	.	16aa\LL	.	16aa\LL	.	4r	.	4r	.
.	.	16ccn\J	.	16ccn\J	.	.	.	.	.
8F#X\	.	8ccT\J	.	8ccT\J	.	.	.	.	.
=19	=19	=19	=19	=19	=19	=19	=19	=19	=19
4G\	.	8b\L	.	8b\L	.	00r	.	0r	.
.	.	(32ee\LL	.	(32ee\LL	.	.	.	.	.
.	.	32ff#\	.	32ff#\	.	.	.	.	.
.	.	32gg#X\	.	32gg#X\	.	.	.	.	.
.	.	32aa\JJJ)	.	32aa\JJJ)	.	.	.	.	.
8r	.	16bb\LL	.	16bb\LL	.	.	.	.	.
.	.	16dd\J	.	16dd\J	.	.	.	.	.
8G#X\	.	8ddT\J	.	8ddT\J	.	.	.	.	.
4A\	.	8cc#X\L	.	8cc#X\L	.	.	.	.	.
.	.	(32a\LL	.	(32a\LL	.	.	.	.	.
.	.	32b\	.	32b\	.	.	.	.	.
.	.	32cc#\	.	32cc#\	.	.	.	.	.
.	.	32dd\JJJ)	.	32dd\JJJ)	.	.	.	.	.
!	!	!LO:TX:a:t=P:problem:mixed beam	!	!LO:TX:a:t=P:problem:mixed beam	!	!	!	!	!
8r	.	16ee\LL	.	16ee\LL	.	.	.	.	.
.	.	16gn/J	.	16gn/J	.	.	.	.	.
8C#/	.	8g/J	.	8g/J	.	.	.	.	.
=20	=20	=20	=20	=20	=20	=20	=20	=20	=20
!LO:TX:a:t=P:problem:mixed beam	!	!LO:TX:a:t=P:problem:mixed beam	!	!LO:TX:a:t=P:problem:mixed beam	!	!	!	!	!
8D\L	.	(>16f#/LL	.	16f#/LL	.	.	.	.	.
.	.	16dd\)	.	16dd\	.	.	.	.	.
8G\	.	(>16b\	.	16b\	.	.	.	.	.
.	.	16bb\JJ)	.	16bb\JJ	.	.	.	.	.
.	.	8qqdd/	.	8qqdd/	.	.	.	.	.
8A\	.	4cc#\	.	4cc#t\	.	.	.	.	.
8AA/J	.	.	.	.	.	.	.	.	.
4D\	.	8dd\L	.	8dd\L	.	.	.	.	.
.	.	8a\J	.	8a\J	.	.	.	.	.
!	!	!	!	!	!	!	!	!LO:TX:a:t=Solo	!
4r	.	4d/	.	4d/	.	.	.	.	.
=21	=21	=21	=21	=21	=21	=21	=21	=21	=21
!	!LO:DY:a	!	!	!	!	!	!	!	!
8BB\L	p	00r	.	00r	.	.	.	4ff#\	Quia
8D\	.	.	.	.	.	.	.	.	.
8G\	.	.	.	.	.	.	.	16ee\LL	.
.	.	.	.	.	.	.	.	16dd\	.
8E\J	.	.	.	.	.	.	.	16cc#\	.
.	.	.	.	.	.	.	.	16b\JJ	.
.	.	.	.	.	.	.	.	8qqb/	.
8F#\L	.	.	.	.	.	.	.	4a#X\	fe-
8E\	.	.	.	.	.	.	.	.	.
8D\	.	.	.	.	.	.	.	4b\	-cit
8BB\J	.	.	.	.	.	.	.	.	.
=22	=22	=22	=22	=22	=22	=22	=22	=22	=22
!LO:TX:a:t=P:problem:mixed beam	!	!	!	!	!	!	!	!	!
8E\L	.	.	.	.	.	.	.	4gg\	mi-
8C#\	.	.	.	.	.	.	.	.	.
8F#\	.	.	.	.	.	.	.	16ff#\LL	.
.	.	.	.	.	.	.	.	16ee\JJ	.
8FF#/J	.	.	.	.	.	.	.	16dd\LL	-hi
.	.	.	.	.	.	.	.	16cc#\JJ	.
!LO:TX:a:t=P:problem:mixed beam	!	!	!	!	!	!	!	!	!
8BB/L	.	.	.	.	.	.	.	16dd\LL	ma-
.	.	.	.	.	.	.	.	16cc#\JJ	.
8B\	.	.	.	.	.	.	.	8b\	-gna
8F#\	.	.	.	.	.	.	.	4r	.
8D\J	.	.	.	.	.	.	.	.	.
=23	=23	=23	=23	=23	=23	=23	=23	=23	=23
8BB/L	.	.	.	.	.	00r	.	4dd#X\	qui
8BB/	.	.	.	.	.	.	.	.	.
8D/	.	.	.	.	.	.	.	8ff#\	po-
8D/J	.	.	.	.	.	.	.	8an\	-tenſ
.	.	.	.	.	.	.	.	8qqa/	.
!LO:LB:g=original	!	!	!	!	!	!	!	!	!
8E\L	.	.	.	.	.	.	.	4g\	eſt
16G\L	.	.	.	.	.	.	.	.	.
16F#\JJ	.	.	.	.	.	.	.	.	.
16E\LL	.	.	.	.	.	.	.	4r	.
16Dn\	.	.	.	.	.	.	.	.	.
16C#\	.	.	.	.	.	.	.	.	.
16BB\JJ	.	.	.	.	.	.	.	.	.
!	!	!	!	!	!	!	!	!LO:LB:g=original	!
=24	=24	=24	=24	=24	=24	=24	=24	=24	=24
8AA/L	.	.	.	.	.	.	.	4cc#\	qui
8AA/	.	.	.	.	.	.	.	.	.
8C#/	.	.	.	.	.	.	.	8ee\	po-
8C#/J	.	.	.	.	.	.	.	8g/	-tenſ
.	.	.	.	.	.	.	.	8qqg/	.
8D\L	.	.	.	.	.	.	.	4f#/	eſt
16F#\L	.	.	.	.	.	.	.	.	.
16E\JJ	.	.	.	.	.	.	.	.	.
8F#\L	.	.	.	.	.	.	.	4r	.
8D\J	.	.	.	.	.	.	.	.	.
=25	=25	=25	=25	=25	=25	=25	=25	=25	=25
8F#\L	.	1r	.	1r	.	.	.	4a\	et
8E\	.	.	.	.	.	.	.	.	.
8F#\	.	.	.	.	.	.	.	8dd\	Sanc-
8D\J	.	.	.	.	.	.	.	8ff#\	-tum
4G\	.	.	.	.	.	.	.	8dd\L	no-
.	.	.	.	.	.	.	.	16ee\L	.
.	.	.	.	.	.	.	.	16ff#\JJ	.
8E\L	.	.	.	.	.	.	.	8gg\	.
!	!	!	!	!	!	!	!	!LO:SIC:l:s=-men:v	!
8G\J	.	.	.	.	.	.	.	16ff#\LL	-nem
.	.	.	.	.	.	.	.	16ee\JJ	.
!	!	!	!	!LO:LB:g=original	!	!	!	!	!
=26	=26	=26	=26	=26	=26	=26	=26	=26	=26
8A\L	.	2r	.	2r	.	.	.	4dd\	e-
8B\	.	.	.	.	.	.	.	.	.
8G\	.	.	.	.	.	.	.	4eeT\	.
8A\J	.	.	.	.	.	.	.	.	.
4D\	.	8r	.	8r	.	.	.	4dd\	-jus
.	.	(32dd\LLL	.	(32dd\LLL	.	.	.	.	.
.	.	32ee\	.	32ee\	.	.	.	.	.
.	.	32ff#\	.	32ff#\	.	.	.	.	.
.	.	32gg\JJJ)	.	32gg\JJJ)	.	.	.	.	.
8r	.	16aa\LL	.	16aa\LL	.	.	.	4r	.
.	.	16ccn\J	.	16ccn\J	.	.	.	.	.
!	!LO:DY:a	!	!	!	!	!	!	!	!
8F#\	f	8ccT\J	.	8ccT\J	.	.	.	.	.
=27	=27	=27	=27	=27	=27	=27	=27	=27	=27
4G\	.	8b\L	.	8b\L	.	1r	.	1r	.
.	.	(32ee\LL	.	(32ee\LL	.	.	.	.	.
.	.	32ff#\	.	32ff#\	.	.	.	.	.
.	.	32gg#X\	.	32gg#X\	.	.	.	.	.
.	.	32aa\JJJ)	.	32aa\JJJ)	.	.	.	.	.
8r	.	16bb\LL	.	16bb\LL	.	.	.	.	.
.	.	16dd\J	.	16dd\J	.	.	.	.	.
8G#X\	.	8ddT\J	.	8ddT\J	.	.	.	.	.
4A\	.	8cc#X\L	.	8cc#X\L	.	.	.	.	.
.	.	(32a\LL	.	(32a\LL	.	.	.	.	.
.	.	32b\	.	32b\	.	.	.	.	.
.	.	32cc#\	.	32cc#\	.	.	.	.	.
.	.	32dd\JJJ)	.	32dd\JJJ)	.	.	.	.	.
!	!	!	!	!LO:TX:a:t=P:problem:mixed beam	!	!	!	!	!
8r	.	16ee\LL	.	16ee\LL	.	.	.	.	.
.	.	16g\J	.	16gn/J	.	.	.	.	.
8C#\	.	8gT\J	.	8gT/J	.	.	.	.	.
!	!	!LO:LB:g=original	!	!	!	!	!	!	!
=28	=28	=28	=28	=28	=28	=28	=28	=28	=28
!LO:TX:a:t=P:problem:mixed beam	!	!LO:TX:a:t=P:problem:mixed beam	!	!LO:TX:a:t=P:problem:mixed beam	!	!	!	!	!
8D\L	.	16f#/LL	.	16f#/LL	.	2r	.	2r	.
.	.	16dd\	.	16dd\	.	.	.	.	.
8G\	.	16b\	.	16b\	.	.	.	.	.
.	.	16bb\JJ	.	16bb\JJ	.	.	.	.	.
.	.	8qqdd/	.	8qqdd/	.	.	.	.	.
8A\	.	4cc#\	.	4cc#t\	.	.	.	.	.
8AA/J	.	.	.	.	.	.	.	.	.
!	!	!	!	!	!	!	!	!LO:TX:a:t=Tutti	!
4D\	.	4dd\	.	4dd\	.	4r	.	4r	.
8r	.	8ff#\L	.	8aa\L	.	8d\	Et	8ff#\	Et
8D\	.	8ff#\J	.	8ddd\J	.	8d\	mi-	8ff#\	mi-
=29	=29	=29	=29	=29	=29	=29	=29	=29	=29
4A\	.	8ee\L	.	16ccc#\LL	.	8c#\	-ſe-	8ee\	-ſe-
.	.	.	.	16aa\	.	.	.	.	.
.	.	8gg\	.	16bb\	.	8e\	-ri-	8gg\	-ri-
.	.	.	.	16gg\JJ	.	.	.	.	.
4AA/	.	8ff#\	.	16aa\LL	.	8d\	-cor-	8ff#\	-cor-
.	.	.	.	16ff#\	.	.	.	.	.
.	.	8ee\J	.	16gg\	.	16c#\	-di-	16ee\	-di-
.	.	.	.	16ee\JJ	.	16c#\	-a	16ee\	-a
4D\	.	8dd\L	.	16ff#\LL	.	8d\	e-	8ff#\	e-
.	.	.	.	16ee\J	.	.	.	.	.
.	.	8a\J	.	8dd\J	.	8d\	-jus	8ff#\	-juſ
8r	.	8f#/L	.	8a\L	.	8d\	a	8ff#\	a
8D\	.	8f#/J	.	8dd\J	.	8d\	pro-	8ff#\	pro-
!	!	!	!	!	!	!	!	!LO:LB:g=original	!
=30	=30	=30	=30	=30	=30	=30	=30	=30	=30
4A\	.	8e/L	.	16cc#\LL	.	8c#\	-ge-	8ee\	-ge-
.	.	.	.	16a\	.	.	.	.	.
.	.	8g/	.	16b\	.	16e\	-ni-	16gg\	-ni-
.	.	.	.	16g\JJ	.	16e\	-e	16gg\	-e
4AA/	.	8f#/	.	16a/LL	.	8d\	in	8ff#\	in
.	.	.	.	16f#/	.	.	.	.	.
.	.	8e/J	.	16g/	.	8c#\	pro-	8ee\	pro-
.	.	.	.	16e/JJ	.	.	.	.	.
4D\	.	(16d/LL	.	16f#/LL	.	16d\	-ge-	16ff#\	-ge-
.	.	16c#/J)	.	16e/J	.	16d\	-ni-	16ff#\	-ni-
.	.	8d/J	.	8dT/J	.	8d\	-e	8ff#\	-eſ
8F#\L	.	8dd\L	.	16.aa\LL	.	4d\	ti-	4ff#\	ti-
!	!	!	!	!LO:N:vis=32	!	!	!	!	!
.	.	.	.	64gg\LL	.	.	.	.	.
!	!	!	!	!LO:N:vis=32	!	!	!	!	!
.	.	.	.	64aa\JJJJ	.	.	.	.	.
8G\J	.	8dd\J	.	16bb\LL	.	.	.	.	.
.	.	.	.	16dd\JJ	.	.	.	.	.
!	!	!	!	!	!	!LO:LB:g=original	!	!	!
=31	=31	=31	=31	=31	=31	=31	=31	=31	=31
!LO:TX:a:t=P:problem:mixed beam	!	!LO:TX:a:t=P:problem:mixed beam	!	!	!	!	!	!	!
8A\L	.	8e/L	.	16cc#\LL	.	8c#\	-men-	16ee\	-men-
.	.	.	.	16b\J	.	.	.	16ee\	-ti-
8AA/	.	8e/	.	8a\J	.	16c#\	-ti-	8ee\	-buſ
.	.	.	.	.	.	16c#\	-bus	.	.
!	!	!	!	!LO:TUP:a:problem:klamra łukowa	!	!	!	!	!
8A\	.	8cc#\	.	24ee\LL	.	4c#\	ti-	4ee\	ti-
.	.	.	.	24dd\	.	.	.	.	.
.	.	.	.	24cc#\JJ	.	.	.	.	.
!	!	!	!	!LO:TUP:a:problem:klamra łukowa	!	!	!	!	!
8c#\J	.	8ee\J	.	24b\LL	.	.	.	.	.
.	.	.	.	24a\	.	.	.	.	.
.	.	.	.	24g\JJ	.	.	.	.	.
!	!	!	!	!LO:LB:g=original	!	!	!	!	!
!LO:TX:a:t=P:problem:mixed beam	!	!LO:TX:a:t=P:problem:mixed beam	!	!LO:TX:a:t=P:problem:mixed beam	!	!	!	!	!
8d\L	.	16f#/LL	.	16f#/LL	.	8A\	-men-	16ff#\	-men-
.	.	16dd\	.	16dd\	.	.	.	16ee\	-ti-
!	!	!	!	!	!	!	!	!LO:N:vis=16	!
8G\	.	16b\	.	16b\	.	16B\	-ti-	8dd\	-buſ
.	.	16bb\JJ	.	16bb\JJ	.	16B\	-bus	.	.
.	.	8qqdd/	.	8qqdd/	.	.	.	.	.
.	.	.	.	.	.	.	.	8qqdd/	.
8A\	.	4cc#t\	.	4cc#t\	.	4E/	e-	4cc#t\	e-
8AA/J	.	.	.	.	.	.	.	.	.
=32	=32	=32	=32	=32	=32	=32	=32	=32	=32
!	!	!LO:TX:a:t=P:problem:mixed beam	!	!LO:TX:a:t=P:problem:mixed beam	!	!	!	!	!
4D\	.	8dd\L	.	8dd\L	.	4F#/	-um	4dd\	-um
.	.	8d/J	.	8d/J	.	.	.	.	.
4r	.	4r	.	4r	.	4r	.	4r	.
2r	.	2r	.	2r	.	2r	.	2r	.
!LO:LB:g=original	!	!LO:LB:g=original	!	!LO:LB:g=original	!	!	!	!	!
=33||	=33||	=33||	=33||	=33||	=33||	=33||	=33||	=33||	=33||
*M2/4	*	*M2/4	*	*M2/4	*	*M2/4	*	*M2/4	*
!LO:TX:a:t=allo Solo	!	!LO:TX:a:t=allo	!	!LO:TX:a:t=allo	!	!LO:TX:a:t=allo solo	!	!LO:TX:a:t=Fecit Tacet	!
!LO:TX:b:t=Fecit po&colon;	!	!	!	!	!	!LO:N:vis=00	!	!	!
8D\L	.	4dd\	.	4dd\	.	0r	.	2ryy	.
8F#\	.	.	.	.	.	.	.	.	.
8C#\	.	4aa\	.	4aa\	.	.	.	.	.
8AA\J	.	.	.	.	.	.	.	.	.
=34	=34	=34	=34	=34	=34	=34	=34	=34	=34
.	.	8qqgg/	.	8qqgg/	.	.	.	.	.
8D\L	.	16ff#\LL	.	16ff#\LL	.	.	.	2ryy	.
.	.	16ee\J	.	16ee\J	.	.	.	.	.
8E\	.	8dd\J	.	8dd\J	.	.	.	.	.
8F#\	.	8r	.	8r	.	.	.	.	.
8F#\J	.	8dd\	.	8dd\	.	.	.	.	.
=35	=35	=35	=35	=35	=35	=35	=35	=35	=35
8G\L	.	(16ee\KL	.	(16ee\KL	.	.	.	2ryy	.
.	.	8.gg\J)	.	8.gg\J)	.	.	.	.	.
8E\	.	.	.	.	.	.	.	.	.
8G\	.	8b\L	.	8b\L	.	.	.	.	.
8A\J	.	8cc#\J	.	8cc#\J	.	.	.	.	.
=36	=36	=36	=36	=36	=36	=36	=36	=36	=36
8D\L	.	(16dd\LL	.	16dd\LL	.	.	.	2ryy	.
.	.	16cc#\J)	.	16cc#\J	.	.	.	.	.
8E\	.	8dd\J	.	8dd\J	.	.	.	.	.
8F#\	.	8r	.	8r	.	.	.	.	.
!	!LO:DY:a	!	!LO:DY:a	!	!LO:DY:a	!	!	!	!
8F#\J	p	8dd\	p	8dd\	p	.	.	.	.
=37	=37	=37	=37	=37	=37	=37	=37	=37	=37
!	!	!	!	!	!	!LO:N:vis=00	!	!	!
8G\L	.	8.ee\L	.	(8.ee\L	.	0r	.	2ryy	.
8E\	.	.	.	.	.	.	.	.	.
.	.	16gg\Jk	.	16gg\Jk)	.	.	.	.	.
8G\	.	8b\L	.	8b\L	.	.	.	.	.
8A\J	.	8cc#\J	.	8cc#\J	.	.	.	.	.
=38	=38	=38	=38	=38	=38	=38	=38	=38	=38
8D\L	.	(16dd\LL	.	(16dd\LL	.	.	.	2ryy	.
.	.	16cc#\J)	.	16cc#\J)	.	.	.	.	.
8D\J	.	8dd\J	.	8dd\J	.	.	.	.	.
!	!LO:DY:a	!	!	!	!	!	!	!	!
8F#\L	f	4r	.	4r	.	.	.	.	.
8E\J	.	.	.	.	f	.	.	.	.
=39	=39	=39	=39	=39	=39	=39	=39	=39	=39
!	!	!	!LO:DY:a:rj	!	!	!	!	!	!
8D\L	.	4ff#\	f	4ff#\	.	.	.	2ryy	.
8D\	.	.	.	.	.	.	.	.	.
8D\	.	(16ddd\KL	.	(16ddd\KL	.	.	.	.	.
.	.	8.ff#\J)	.	8.ff#\J)	.	.	.	.	.
8D\J	.	.	.	.	.	.	.	.	.
=40	=40	=40	=40	=40	=40	=40	=40	=40	=40
8C#\L	.	16ee\LL	.	16ee\LL	.	.	.	2ryy	.
.	.	16aa\	.	16aa\	.	.	.	.	.
8C#\	.	16gg#X\	.	16gg#X\	.	.	.	.	.
.	.	16bb\JJ	.	16bb\JJ	.	.	.	.	.
8C#\	.	4aa\	.	4aa\	.	.	.	.	.
8C#\J	.	.	.	.	.	.	.	.	.
=41	=41	=41	=41	=41	=41	=41	=41	=41	=41
!	!	!	!	!	!	!LO:N:vis=00	!	!	!
8BB\L	.	4e/	.	4e/	.	0r	.	2ryy	.
8BB\	.	.	.	.	.	.	.	.	.
8E\	.	4dd\	.	4dd\	.	.	.	.	.
8E\J	.	.	.	.	.	.	.	.	.
=42	=42	=42	=42	=42	=42	=42	=42	=42	=42
8AA/L	.	8cc#\L	.	8cc#\L	.	.	.	2ryy	.
8C#/	.	16aa\L	.	16aa\L	.	.	.	.	.
.	.	16ee\JJ	.	16ee\JJ	.	.	.	.	.
8D/	.	4ff#\	.	4ff#\	.	.	.	.	.
8DD/J	.	.	.	.	.	.	.	.	.
=43	=43	=43	=43	=43	=43	=43	=43	=43	=43
8AA/L	.	8ee\L	.	8ee\L	.	.	.	2ryy	.
8C#/	.	16aa\L	.	16aa\L	.	.	.	.	.
.	.	16cc#\JJ	.	16cc#\JJ	.	.	.	.	.
8BB/	.	4dd\	.	4dd\	.	.	.	.	.
8E/J	.	.	.	.	.	.	.	.	.
=44	=44	=44	=44	=44	=44	=44	=44	=44	=44
!LO:TX:a:t=P:problem:mixed beam	!	!LO:TUP:a:problem:klamra łukowa	!	!	!	!	!	!	!
8AA/L	.	24cc#\LL	.	24cc#\LL	.	.	.	2ryy	.
.	.	24aa\	.	24aa\	.	.	.	.	.
.	.	24ee\JJ	.	24ee\JJ	.	.	.	.	.
!	!	!LO:TUP:a:problem:klamra łukowa	!	!	!	!	!	!	!
8D\	.	24ff#\LL	.	24ff#\LL	.	.	.	.	.
.	.	24dd\	.	24dd\	.	.	.	.	.
.	.	24b\JJ	.	24b\JJ	.	.	.	.	.
8E\	.	8a\L	.	8a/L	.	.	.	.	.
8EE/J	.	8bT\J	.	8bT/J	.	.	.	.	.
=45	=45	=45	=45	=45	=45	=45	=45	=45	=45
!LO:TX:a:t=P:problem:mixed beam	!	!	!	!	!	!LO:N:vis=00	!	!	!
8AA/L	.	4a/	.	4a/	.	0r	.	2ryy	.
16A\L	.	.	.	.	.	.	.	.	.
16Gn\JJ	.	.	.	.	.	.	.	.	.
8F#\L	.	4r	.	4r	.	.	.	.	.
8E\J	.	.	.	.	.	.	.	.	.
=46	=46	=46	=46	=46	=46	=46	=46	=46	=46
8D\L	.	4ff#\	.	4aa\	.	.	.	2ryy	.
8D\	.	.	.	.	.	.	.	.	.
8D\	.	8.dd\L	.	8.ff#\L	.	.	.	.	.
8D\J	.	.	.	.	.	.	.	.	.
.	.	16ee\Jk	.	16gg\Jk	.	.	.	.	.
!	!	!LO:LB:g=original	!	!LO:LB:g=original	!	!	!	!	!
=47	=47	=47	=47	=47	=47	=47	=47	=47	=47
!	!	!	!	!LO:TX:a:t=Fecit	!	!	!	!	!
!	!	!LO:TX:a:t=P:problem:mixed beam	!	!LO:TX:a:t=P:problem:mixed beam	!	!	!	!	!
8D\L	.	8ff#\L	.	8aa\L	.	.	.	2ryy	.
8F#\	.	8f#/	.	8f#/	.	.	.	.	.
8E\	.	8e/	.	8e/	.	.	.	.	.
8D\J	.	8d/J	.	8d/J	.	.	.	.	.
=48	=48	=48	=48	=48	=48	=48	=48	=48	=48
8AA/L	.	4ee\	.	4gg\	.	.	.	2ryy	.
8AA/	.	.	.	.	.	.	.	.	.
8AA/	.	8.cc#\L	.	8.ee\L	.	.	.	.	.
8AA/J	.	.	.	.	.	.	.	.	.
.	.	16dd\Jk	.	16ff#\Jk	.	.	.	.	.
=49	=49	=49	=49	=49	=49	=49	=49	=49	=49
!	!	!LO:TX:a:t=P:problem:mixed beam	!	!LO:TX:a:t=P:problem:mixed beam	!	!LO:N:vis=00	!	!	!
8AA/L	.	8ee\L	.	8gg\L	.	0r	.	2ryy	.
8C#/	.	8c#/	.	8c#'/	.	.	.	.	.
8BB/	.	8B/	.	8B'/	.	.	.	.	.
8AA/J	.	8A/J	.	8A'/J	.	.	.	.	.
=50	=50	=50	=50	=50	=50	=50	=50	=50	=50
!LO:TX:a:t=P:problem:mixed beam	!	!	!	!LO:TX:a:t=P:problem:mixed beam	!	!	!	!	!
8D\L	.	8f#/L	.	8f#/L	.	.	.	2ryy	.
8F#\	.	8f#/	.	8dd\	.	.	.	.	.
8A\	.	8c#/	.	8e/	.	.	.	.	.
8AA/J	.	8d/J	.	8cc#\J	.	.	.	.	.
=51	=51	=51	=51	=51	=51	=51	=51	=51	=51
8D\L	.	4f#/	.	4dd\	.	.	.	2ryy	.
8G\	.	.	.	.	.	.	.	.	.
8F#\	.	4r	.	4r	.	.	.	.	.
8E\J	.	.	.	.	.	.	.	.	.
!LO:LB:g=original	!	!	!	!	!	!	!	!	!
=52	=52	=52	=52	=52	=52	=52	=52	=52	=52
!	!	!	!LO:DY:a	!	!LO:DY:a	!	!	!	!
8D\L	p	4f#/	p	4a/	p	.	.	2ryy	.
8D\	.	.	.	.	.	.	.	.	.
8D\	.	8.d/L	.	8.f#/L	.	.	.	.	.
8D\J	.	.	.	.	.	.	.	.	.
.	.	16e/Jk	.	16g/Jk	.	.	.	.	.
=53	=53	=53	=53	=53	=53	=53	=53	=53	=53
!	!	!	!	!	!	!LO:N:vis=00	!	!	!
8D\L	.	8f#/L	.	8a/L	.	0r	.	2ryy	.
8F#\	.	8f#/	.	8f#'/	.	.	.	.	.
8E\	.	8e/	.	8e'/	.	.	.	.	.
8D\J	.	8d/J	.	8d'/J	.	.	.	.	.
=54	=54	=54	=54	=54	=54	=54	=54	=54	=54
8AA/L	.	4e/	.	4g/	.	.	.	2ryy	.
8AA/	.	.	.	.	.	.	.	.	.
8AA/	.	8.c#/L	.	8.e/L	.	.	.	.	.
8AA/J	.	.	.	.	.	.	.	.	.
.	.	16d/Jk	.	16f#/Jk	.	.	.	.	.
=55	=55	=55	=55	=55	=55	=55	=55	=55	=55
8AA/L	.	8e/L	.	8g/L	.	.	.	2ryy	.
8C#/	.	8c#/	.	8c#/	.	.	.	.	.
8BB/	.	8B/	.	8B/	.	.	.	.	.
8AA/J	.	8A/J	.	8A/J	.	.	.	.	.
=56	=56	=56	=56	=56	=56	=56	=56	=56	=56
!LO:TX:a:t=P:problem:mixed beam	!	!	!LO:DY:a	!LO:TX:a:t=P:problem:mixed beam	!	!	!	!	!
8D\L	f	8f#/L	f	8f#/L	.	.	.	2ryy	.
8F#\	.	8f#/	.	8dd\	.	.	.	.	.
8A\	.	8c#/	.	8e/	.	.	.	.	.
8AA/J	.	8e/J	.	8cc#\J	.	.	.	.	.
=57	=57	=57	=57	=57	=57	=57	=57	=57	=57
4D;;\	.	8f#/L	.	8dd\L	.	2r	.	2ryy	.
.	.	32a/LL	.	(32a\LL	.	.	.	.	.
.	.	32g/	.	32g\	.	.	.	.	.
.	.	32f#/	.	32f#\	.	.	.	.	.
.	.	32e/JJJ	.	32e\JJJ)	.	.	.	.	.
4r	.	4d;;/	.	4d/	.	.	.	.	.
=58	=58	=58	=58	=58	=58	=58	=58	=58	=58
!	!	!	!	!	!LO:DY:a	!	!	!	!
8D\L	p	8f#/L	.	4dd\	p	4d\	Fe-	2ryy	.
8F#\	.	8a/	.	.	.	.	.	.	.
8C#\	.	8e/	.	4aa\	.	8a\	-cit	.	.
8AA\J	.	8c#/J	.	.	.	8a\	po-	.	.
=59	=59	=59	=59	=59	=59	=59	=59	=59	=59
.	.	.	.	8qqgg/	.	.	.	.	.
8D\L	.	8f#/L	.	16ff#\LL	.	16f#\	-ten-	2ryy	.
.	.	.	.	16ee\J	.	16e\	-ti-	.	.
8E\	.	8g/	.	8dd\J	.	8d\	-am	.	.
8F#\	.	8a/	.	8r	.	8r	.	.	.
8F#\J	.	8a/J	.	8dd\	.	8d\	in	.	.
=60	=60	=60	=60	=60	=60	=60	=60	=60	=60
8G\L	.	8b/L	.	(16ee\KL	.	(16e\KL	bra-	2ryy	.
.	.	.	.	8.gg\J)	.	8.g\J)	.	.	.
8E\	.	8b/	.	.	.	.	.	.	.
8G\	.	8e/	.	8b\L	.	8B\	-chi-	.	.
8A\J	.	8e/J	.	8cc#\J	.	16c#\	-o	.	.
.	.	.	.	.	.	16c#\	.	.	.
=61	=61	=61	=61	=61	=61	=61	=61	=61	=61
8D\L	.	8f#/L	.	(16dd\LL	.	16d\LL	Su-	2ryy	.
.	.	.	.	16cc#\J)	.	16c#\JJ	.	.	.
8E\	.	8g/	.	8dd\J	.	8d\	-o	.	.
8F#\	.	8a/	.	8r	.	8r	.	.	.
8F#\J	.	8a/J	.	8dd\	.	8d\	di-	.	.
=62	=62	=62	=62	=62	=62	=62	=62	=62	=62
!	!	!LO:TX:a:t=P:problem:mixed beam	!	!	!	!	!	!	!
8G\L	.	8b\L	.	(16ee\KL	.	(16e\KL	-sper-	2ryy	.
.	.	.	.	8.gg\J)	.	8.g\J)	.	.	.
8E\	.	8b\	.	.	.	.	.	.	.
8G\	.	8e/	.	8b\L	.	8B\	.	.	.
8A\J	.	8e/J	.	8cc#\J	.	8c#\	-sit	.	.
!	!	!	!	!LO:LB:g=original	!	!	!	!	!
=63	=63	=63	=63	=63	=63	=63	=63	=63	=63
8D\L	.	16f#/LL	.	16dd\LL	.	16d\LL	su-	2ryy	.
.	.	16e/J	.	16cc#\J	.	16c#\JJ	-per-	.	.
8d\	.	8f#/J	.	8dd\J	.	8d\	-bos	.	.
8A\	.	4r	.	4r	.	4r	.	.	.
8F#\J	.	.	.	.	.	.	.	.	.
!	!	!LO:LB:g=original	!	!	!	!	!	!	!
=64	=64	=64	=64	=64	=64	=64	=64	=64	=64
8D\L	.	8a/L	.	8ff#\L	.	4f#\	men-	2ryy	.
8D\	.	8a/	.	8ff#\	.	.	.	.	.
8D\	.	8a/	.	8ff#\	.	4f#\	-te	.	.
8D\J	.	8a/J	.	8ff#\J	.	.	.	.	.
=65	=65	=65	=65	=65	=65	=65	=65	=65	=65
8r	.	16cc#\LL	.	16ee\LL	.	16e\LL	.	2ryy	.
.	.	16b\JJ	.	16dd\JJ	.	16d\JJ	.	.	.
!	!	!	!	!	!	!LO:SIC:l:s=cor-:v	!	!	!
8AA/L	.	4a\	.	4cc#\	.	4c#\	co-	.	.
8C#/	.	.	.	.	.	.	.	.	.
8AA/J	.	8cc#\	.	8ee\	.	8e\	-dis	.	.
!	!	!	!	!	!	!LO:LB:g=original	!	!	!
=66	=66	=66	=66	=66	=66	=66	=66	=66	=66
8r	.	16b\LL	.	16dd\LL	.	16d\LL	su-	2ryy	.
.	.	16a\JJ	.	16cc#\JJ	.	16c#\JJ	.	.	.
8E\L	.	4g#X/	.	4b\	.	4B\	.	.	.
8G#X\	.	.	.	.	.	.	.	.	.
8E\J	.	8b/	.	8dd\	.	8d\	-i	.	.
=67	=67	=67	=67	=67	=67	=67	=67	=67	=67
!LO:TX:a:t=P:problem:mixed beam	!	!	!	!	!	!LO:SIC:l:s=mente:v	!	!	!
8A\L	.	8a\L	.	8cc#\L	.	8c#\	me-	2ryy	.
8AA/	.	8cc#\	.	8ee\	.	8e\	.	.	.
*	*	*	*	*	*	*Xtuplet	*	*	*
8D/	.	8b\	.	8dd\	.	24f#\LL	.	.	.
.	.	.	.	.	.	24e\	-e-	.	.
.	.	.	.	.	.	24d\JJ	.	.	.
8D#X/J	.	8a\J	.	8cc#\J	.	24c#\LL	.	.	.
.	.	.	.	.	.	24B\	.	.	.
.	.	.	.	.	.	24A\JJ	-te	.	.
=68	=68	=68	=68	=68	=68	=68	=68	=68	=68
!	!	!	!	!	!	!LO:SIC:l:s=cor-:v	!	!	!
8E\L	.	8g#X/	.	8b\	.	8G#X\	Co-	2ryy	.
8E\	.	4g#/	.	4b\	.	4B\	.	.	.
8E\	.	.	.	.	.	.	.	.	.
8E\J	.	[8b\	.	[8dd\	.	[8d\	-dis	.	.
=69	=69	=69	=69	=69	=69	=69	=69	=69	=69
8E\L	.	8b\]	.	8dd\]	.	16d\LL]	.	2ryy	.
.	.	.	.	.	.	16g#X\	.	.	.
8E\	.	4b\	.	4dd\	.	16b\	ſu-	.	.
.	.	.	.	.	.	16a\JJ	.	.	.
8E\	.	.	.	.	.	16g#X\LL	.	.	.
.	.	.	.	.	.	16f#\	.	.	.
8E\J	.	8g#X\	.	8b\	.	16e\	.	.	.
.	.	.	.	.	.	16d\JJ	.	.	.
=70	=70	=70	=70	=70	=70	=70	=70	=70	=70
!LO:TX:a:t=P:problem:takty 70-71 zapisane repetycją	!	!	!	!	!	!	!	!	!
8E\Lyy	.	8a\	.	8cc#\	.	8E/	-i	2ryy	.
8E\yy	.	4a\	.	4cc#\	.	4A\	.	.	.
8E\yy	.	.	.	.	.	.	.	.	.
8E\Jyy	.	[8cc#\	.	[8ee\	.	[8c#\	men-	.	.
=71	=71	=71	=71	=71	=71	=71	=71	=71	=71
8E\Lyy	.	8cc#\]	.	8ee\]	.	16c#\LL]	-te	2ryy	.
.	.	.	.	.	.	16e\	.	.	.
8E\yy	.	4b\	.	4dd\	.	16a\	.	.	.
!	!	!	!	!	!	!LO:SIC:l:s=cor-:v	!	!	!
.	.	.	.	.	.	16g#X\JJ	Co-	.	.
8E\yy	.	.	.	.	.	16f#\LL	.	.	.
.	.	.	.	.	.	16e\JJ	.	.	.
8E\Jyy	.	8a\	.	8cc#\	.	16d\LL	.	.	.
.	.	.	.	.	.	16c#\JJ	-dis	.	.
=72	=72	=72	=72	=72	=72	=72	=72	=72	=72
8E\L	.	8a/L	.	8cc#\L	.	8c#\	.	2ryy	.
16E\L	.	8g#X/J	.	8b\J	.	8B\	ſui	.	.
16D\JJ	.	.	.	.	.	.	.	.	.
8C#/L	.	4r	.	4r	.	4r	.	.	.
8AA/J	.	.	.	.	.	.	.	.	.
!LO:LB:g=original	!	!	!	!	!	!	!	!	!
=73	=73	=73	=73	=73	=73	=73	=73	=73	=73
4D\	.	4a\	.	4ff#\	.	4f#\	men-	2ryy	.
4E\	.	4bT\	.	4gg#Xt\	.	4g#X\	-te	.	.
=74	=74	=74	=74	=74	=74	=74	=74	=74	=74
4AA/	.	16cc#\LL	.	16aa\LL	.	8a\	Cor-	2ryy	.
.	.	16a\	.	16a\	.	.	.	.	.
.	.	16cc#\	.	16cc#\	.	8A\	-dis	.	.
.	.	16ee\JJ	.	16ee\JJ	.	.	.	.	.
!	!	!LO:TX:a:t=P:problem:mixed beam	!	!	!	!	!	!	!
4r	.	8aa\L	.	8aa\L	.	4r	.	.	.
.	.	8a/J	.	8a\J	.	.	.	.	.
!	!	!	!	!	!	!LO:LB:g=original	!	!	!
=75	=75	=75	=75	=75	=75	=75	=75	=75	=75
4D\	.	4a\	.	4ff#\	.	4f#\	men-	2ryy	.
4E\	.	4bT\	.	4gg#Xt\	.	4g#X\	-te	.	.
=76	=76	=76	=76	=76	=76	=76	=76	=76	=76
8AA/L	.	4cc#\	.	4aa\	.	8a\L	Cor-	2ryy	.
8BB/	.	.	.	.	.	16g#X\L	.	.	.
.	.	.	.	.	.	16f#\JJ	.	.	.
8C#/	.	4r	.	4r	.	8e\	.	.	.
8D/J	.	.	.	.	.	8d\	-dis	.	.
=77	=77	=77	=77	=77	=77	=77	=77	=77	=77
!	!	!	!	!	!	!LO:TUP:a:problem:klamra łukowa, kropka zamiast numeru	!	!	!
4E\	.	2r	.	2r	.	12c#\L	su-	2ryy	.
.	.	.	.	.	.	12B\	.	.	.
.	.	.	.	.	.	12A\J	.	.	.
!	!	!	!	!	!	!LO:TX:a:t=P:problem:niejednoznaczny zapis ozdobnika [przyjęto tryl]:global	!	!	!
4EE/	.	.	.	.	.	4BT\	.	.	.
=78	=78	=78	=78	=78	=78	=78	=78	=78	=78
!	!LO:DY:a	!	!LO:DY:a	!	!LO:DY:a	!	!	!	!
8AA/L	f	4cc#\	f	4ee\	f	4A\	-i	2ryy	.
8AA/	.	.	.	.	.	.	.	.	.
8AA/	.	8.a\L	.	8.cc#\L	.	4r	.	.	.
8AA/J	.	.	.	.	.	.	.	.	.
.	.	16b\Jk	.	16dd\Jk	.	.	.	.	.
!	!	!	!	!LO:LB:g=original	!	!	!	!	!
=79	=79	=79	=79	=79	=79	=79	=79	=79	=79
!	!	!LO:TX:a:t=P:problem:mixed beam	!	!LO:TX:a:t=P:problem:mixed beam	!	!LO:N:vis=00	!	!	!
8AA/L	.	8cc#/L	.	8ee\L	.	0r	.	2ryy	.
8C#/	.	8c#/	.	8c#/	.	.	.	.	.
8BB/	.	8B/	.	8B/	.	.	.	.	.
8AA/J	.	8A/J	.	8A/J	.	.	.	.	.
=80	=80	=80	=80	=80	=80	=80	=80	=80	=80
8E\L	.	4b\	.	4dd\	.	.	.	2ryy	.
8E\	.	.	.	.	.	.	.	.	.
8E\	.	8.g#X\L	.	8.b\L	.	.	.	.	.
8E\J	.	.	.	.	.	.	.	.	.
.	.	16a\Jk	.	16cc#\Jk	.	.	.	.	.
!	!	!LO:LB:g=original	!	!	!	!	!	!	!
=81	=81	=81	=81	=81	=81	=81	=81	=81	=81
!	!	!	!	!LO:TX:a:t=P:problem:mixed beam	!	!	!	!	!
8E\L	.	8b/L	.	8dd\L	.	.	.	2ryy	.
8G#X\	.	8g#X/	.	8g#X/	.	.	.	.	.
8F#\	.	8f#/	.	8f#/	.	.	.	.	.
8E\J	.	8e/J	.	8e/J	.	.	.	.	.
=82	=82	=82	=82	=82	=82	=82	=82	=82	=82
!LO:TX:a:t=P:problem:mixed beam	!	!	!	!	!	!	!	!	!
8C#\L	.	8e/L	.	8a/L	.	.	.	2ryy	.
8D\	.	8f#/	.	8b/	.	.	.	.	.
8E\	.	8c#/	.	8e/	.	.	.	.	.
8EE/J	.	8B/J	.	8g#X/J	.	.	.	.	.
=83	=83	=83	=83	=83	=83	=83	=83	=83	=83
!	!	!	!	!	!	!LO:N:vis=00	!	!	!
8AA/L	.	4c#/	.	4a/	.	0r	.	2ryy	.
8D/	.	.	.	.	.	.	.	.	.
8C#/	.	4r	.	4r	.	.	.	.	.
8BB/J	.	.	.	.	.	.	.	.	.
=84	=84	=84	=84	=84	=84	=84	=84	=84	=84
!	!LO:DY:a	!	!LO:DY:a	!	!LO:DY:a	!	!	!	!
8AA/L	p	4cc#\	p	4ee\	p	.	.	2ryy	.
8AA/	.	.	.	.	.	.	.	.	.
8AA/	.	8.a\L	.	8.cc#\L	.	.	.	.	.
8AA/J	.	.	.	.	.	.	.	.	.
.	.	16b\Jk	.	16dd\Jk	.	.	.	.	.
=85	=85	=85	=85	=85	=85	=85	=85	=85	=85
!	!	!LO:TX:a:t=P:problem:mixed beam	!	!LO:TX:a:t=P:problem:mixed beam	!	!	!	!	!
8AA/L	.	8cc#\L	.	8ee\L	.	.	.	2ryy	.
8C#/	.	8c#/	.	8c#/	.	.	.	.	.
8BB/	.	8B/	.	8B/	.	.	.	.	.
8AA/J	.	8A/J	.	8A/J	.	.	.	.	.
=86	=86	=86	=86	=86	=86	=86	=86	=86	=86
8E\L	.	4b\	.	4dd\	.	.	.	2ryy	.
8E\	.	.	.	.	.	.	.	.	.
8E\	.	8.g#X\L	.	8.b\L	.	.	.	.	.
8E\J	.	.	.	.	.	.	.	.	.
.	.	16a\Jk	.	16cc#\Jk	.	.	.	.	.
=87	=87	=87	=87	=87	=87	=87	=87	=87	=87
!	!	!	!	!LO:TX:a:t=P:problem:mixed beam	!	!LO:N:vis=0	!	!	!
8E\L	.	8b/L	.	8dd\L	.	1r	.	2ryy	.
8G#X\	.	8g#X/	.	8g#X/	.	.	.	.	.
8F#\	.	8f#/	.	8f#/	.	.	.	.	.
8E\J	.	8e/J	.	8e/J	.	.	.	.	.
=88	=88	=88	=88	=88	=88	=88	=88	=88	=88
!LO:TX:a:t=P:problem:mixed beam	!LO:DY:a	!	!LO:DY:a	!	!LO:DY:a	!	!	!	!
8C#\L	f	8e/L	f	8a/L	f	.	.	2ryy	.
8D\	.	8f#/	.	8b/	.	.	.	.	.
8E\	.	8c#/	.	8e/	.	.	.	.	.
8EE/J	.	8B/J	.	8g#X/J	.	.	.	.	.
=89	=89	=89	=89	=89	=89	=89	=89	=89	=89
4AA/	.	8c#/L	.	8a/L	.	2r	.	2ryy	.
.	.	(32e/LL	.	32e/LL	.	.	.	.	.
.	.	32d/	.	32d/	.	.	.	.	.
.	.	32c#/	.	32c#/	.	.	.	.	.
.	.	32B/JJJ)	.	32B/JJJ	.	.	.	.	.
4r	.	4A/	.	4A/	.	.	.	.	.
=90	=90	=90	=90	=90	=90	=90	=90	=90	=90
!	!LO:DY:a	!	!LO:DY:a	!	!LO:DY:a	!	!	!	!
8A\L	p	8cc#\L	p	4a\	p	(4A\	de-	2ryy	.
8c#\	.	8ee\	.	.	.	.	.	.	.
8G#X\	.	8b\	.	4ee\	.	4e\)	.	.	.
8E\J	.	8g#X\J	.	.	.	.	.	.	.
=91	=91	=91	=91	=91	=91	=91	=91	=91	=91
.	.	.	.	8qqdd/	.	8qqd/	.	.	.
8AA/L	.	8c#/L	.	16cc#\LL	.	16c#\	-po-	2ryy	.
.	.	.	.	16b\J	.	16B\	-su-	.	.
8BB/	.	8d/	.	8a\J	.	8A\	-it	.	.
8C#/	.	8e/	.	8r	.	8r	.	.	.
8C#/J	.	8e/J	.	8a\	.	8A\	po-	.	.
=92	=92	=92	=92	=92	=92	=92	=92	=92	=92
8D/L	.	8f#/L	.	(16b\KL	.	(16B\KL	-ten-	2ryy	.
.	.	.	.	8.dd\J)	.	8.d\J)	.	.	.
8BB/	.	8f#/	.	.	.	.	.	.	.
8D/	.	8B/	.	8f#/L	.	8F#/	-tes	.	.
8E/J	.	8B/J	.	8g#X/J	.	8G#X/	de	.	.
=93	=93	=93	=93	=93	=93	=93	=93	=93	=93
8AA/L	.	8c#/L	.	16a/LL	.	16A\LL	se-	2ryy	.
!	!	!	!	!LO:SIC:s=16G#:v	!	!LO:SIC:s=16G#:v	!	!	!
.	.	.	.	16g/J	.	16G\JJ	.	.	.
8BB/	.	8d/	.	8a/J	.	8A\	-de	.	.
8C#/	.	8e/	.	8r	.	8r	.	.	.
8C#/J	.	8e/J	.	8a/	.	8A\	po-	.	.
!LO:LB:g=original	!	!	!	!LO:PB:g=original	!	!	!	!	!
=94	=94	=94	=94	=94	=94	=94	=94	=94	=94
8D/L	.	8f#/L	.	(16b\KL	.	(16B\KL	-ten-	2ryy	.
.	.	.	.	8.dd\J)	.	8.d\J)	.	.	.
8BB/	.	8f#/	.	.	.	.	.	.	.
8D/	.	8B/	.	8f#/L	.	8F#/	-tes	.	.
8E/J	.	8B/J	.	8g#X/J	.	8G#X/	de	.	.
=95	=95	=95	=95	=95	=95	=95	=95	=95	=95
!LO:TX:a:t=P:problem:mixed beam	!	!LO:TX:a:t=P:problem:mixed beam	!	!	!	!	!	!	!
8AA/L	.	8c#/L	.	8a\L	.	16A\LL	se-	2ryy	.
.	.	.	.	.	.	16G#X\JJ	.	.	.
8A\	.	8cc#\	.	8ee\	.	8A\	-de	.	.
8A\	.	8cc#\	.	8ee\	.	4r	.	.	.
8A\J	.	8cc#\J	.	8ee\J	.	.	.	.	.
!	!	!	!	!	!	!LO:LB:g=original	!	!	!
=96	=96	=96	=96	=96	=96	=96	=96	=96	=96
8Gn\L	.	8cc#\L	.	8ee\L	.	4e\	et	2ryy	.
8G\	.	8cc#\	.	8ee\	.	.	.	.	.
8G\	.	8cc#\	.	8ee\	.	8c#\	ex-	.	.
8G\J	.	8cc#\J	.	8ee\J	.	8B\	-al-	.	.
=97	=97	=97	=97	=97	=97	=97	=97	=97	=97
4F#\	.	8cc#\L	.	8ee\L	.	8A#X\L	-ta-	2ryy	.
.	.	8ee\	.	8ggn\	.	8f#\J	.	.	.
8r	.	8dd\	.	8ff#\	.	8f#\L	.	.	.
8F#\	.	8cc#\J	.	8ee\J	.	8e\J	-vit	.	.
!	!	!LO:LB:g=original	!	!	!	!	!	!	!
=98	=98	=98	=98	=98	=98	=98	=98	=98	=98
.	.	.	.	.	.	8qqe/	.	.	.
8E#X\L	.	8b\L	.	8dd\L	.	4.d\	hu-	2ryy	.
8E#\	.	8b\	.	8dd\	.	.	.	.	.
8E#\	.	8b\	.	8dd\	.	.	.	.	.
8E#\J	.	8b\J	.	8dd\J	.	8d\	-mi-	.	.
=99	=99	=99	=99	=99	=99	=99	=99	=99	=99
!LO:TX:a:t=P:problem:mixed beam	!	!	!	!	!	!	!	!	!
16F#\LL	.	4a#X/	.	4cc#\	.	4c#\	-les	2ryy	.
16FF#/	.	.	.	.	.	.	.	.	.
16AA#X/	.	.	.	.	.	.	.	.	.
16C#/JJ	.	.	.	.	.	.	.	.	.
!LO:TX:a:t=P:problem:mixed beam	!	!	!	!	!	!	!	!	!
8F#\L	.	4r	.	4r	.	4r	.	.	.
8FF#/J	.	.	.	.	.	.	.	.	.
=100	=100	=100	=100	=100	=100	=100	=100	=100	=100
8F#\L	.	8c#/	.	8a#X\	.	8F#/	e-	2ryy	.
8F#\	.	8r	.	8r	.	4A#X\	-su-	.	.
8F#\	.	8a#X/	.	8cc#\	.	.	.	.	.
8F#\J	.	8r	.	8r	.	8c#\	-ri-	.	.
=101	=101	=101	=101	=101	=101	=101	=101	=101	=101
8F#\L	.	8cc#\	.	8ee\	.	8e\	-en-	2ryy	.
8F#\	.	4b\	.	4dd\	.	4d\	.	.	.
8F#\	.	.	.	.	.	.	.	.	.
8F#\J	.	8a\	.	8cc#\	.	8c#\	-tes	.	.
=102	=102	=102	=102	=102	=102	=102	=102	=102	=102
8F#\L	.	8e/	.	8b\	.	8F#/	im-	2ryy	.
8F#\	.	8r	.	8r	.	4B\	.	.	.
8F#\	.	8b\	.	8dd\	.	.	.	.	.
8F#\J	.	8r	.	8r	.	8d\	-ple-	.	.
=103	=103	=103	=103	=103	=103	=103	=103	=103	=103
8F#\L	.	8dd\	.	8ff#\	.	8f#\	-vit	2ryy	.
8F#\	.	4cc#\	.	4ee\	.	4e\	vo-	.	.
8F#\	.	.	.	.	.	.	.	.	.
8F#\J	.	8b\	.	8dd\	.	8d\	.	.	.
=104	=104	=104	=104	=104	=104	=104	=104	=104	=104
8F#\L	.	8a#X\	.	8cc#\	.	8F#/	-nis	2ryy	.
8F#\	.	8r	.	8r	.	4c#\	et	.	.
8F#\	.	8cc#\	.	8ee\	.	.	.	.	.
8F#\J	.	8r	.	8r	.	8e\	divi-	.	.
=105	=105	=105	=105	=105	=105	=105	=105	=105	=105
8AA#X/L	.	8ee\	.	8gg\	.	8g\	-tes	2ryy	.
8AA#/	.	4dd\	.	4ff#\	.	4f#\	.	.	.
8AA#/	.	.	.	.	.	.	.	.	.
8AA#/J	.	8cc#\	.	8ee\	.	8e\	di-	.	.
=106	=106	=106	=106	=106	=106	=106	=106	=106	=106
!LO:TX:a:t=P:problem:mixed beam	!	!	!	!	!	!	!	!	!
8BB/L	.	8b\L	.	8dd\L	.	8d\	-mi-	2ryy	.
8BB/	.	8b\	.	8dd\	.	16c#\	-ſit	.	.
.	.	.	.	.	.	16B\	in	.	.
8F#\	.	8a#X\	.	8cc#\	.	4c#t\	a-	.	.
8F#\J	.	8a#\J	.	8cc#\J	.	.	.	.	.
!	!	!	!	!	!	!LO:LB:g=original	!	!	!
=107	=107	=107	=107	=107	=107	=107	=107	=107	=107
!	!	!	!	!LO:TX:a:t=P:problem:brak taktu	!	!	!	!	!
8BB/L	f	4b\	.	2ryy	.	4B\	-nes	2ryy	.
8BB/	.	.	.	.	.	.	.	.	.
8BB/	.	4r	.	.	.	4r	.	.	.
8BB/J	.	.	.	.	.	.	.	.	.
=108	=108	=108	=108	=108	=108	=108	=108	=108	=108
!	!	!	!LO:DY:a	!	!	!LO:N:vis=00	!	!	!
8E\L	.	16b\LL	f	16ff#\LL	f	0r	.	2ryy	.
.	.	16g\JJ	.	16dd\JJ	.	.	.	.	.
8E\	.	4e/	.	4b\	.	.	.	.	.
8E\	.	.	.	.	.	.	.	.	.
8E\J	.	8b\	.	8ff#\	.	.	.	.	.
=109	=109	=109	=109	=109	=109	=109	=109	=109	=109
8A\L	.	8cc#\	.	8gg\	.	.	.	2ryy	.
8A\	.	4c#/	.	4g/	.	.	.	.	.
8A\	.	.	.	.	.	.	.	.	.
8A\J	.	8cc#\	.	8gg\	.	.	.	.	.
=110	=110	=110	=110	=110	=110	=110	=110	=110	=110
8D\L	.	16a/LL	.	16ee\LL	.	.	.	2ryy	.
.	.	16f#/JJ	.	16cc#\JJ	.	.	.	.	.
8D\	.	4d/	.	4a/	.	.	.	.	.
8D\	.	.	.	.	.	.	.	.	.
8D\J	.	8a/	.	8ee\	.	.	.	.	.
!	!	!	!	!LO:LB:g=original	!	!	!	!	!
=111	=111	=111	=111	=111	=111	=111	=111	=111	=111
8G\L	.	8b\	.	8ff#\	.	.	.	2ryy	.
8G\	.	4B/	.	4f#/	.	.	.	.	.
8G\	.	.	.	.	.	.	.	.	.
8G\J	.	8b\	.	8ff#\	.	.	.	.	.
=112	=112	=112	=112	=112	=112	=112	=112	=112	=112
!	!	!	!	!	!	!LO:N:vis=00	!	!	!
8C#/L	.	16g/LL	.	16dd\LL	.	0r	.	2ryy	.
.	.	16e/JJ	.	16b\JJ	.	.	.	.	.
8C#/	.	4c#/	.	4g/	.	.	.	.	.
8C#/	.	.	.	.	.	.	.	.	.
8C#/J	.	8g/	.	8dd\	.	.	.	.	.
!LO:LB:g=original	!	!LO:LB:g=original	!	!	!	!	!	!	!
=113	=113	=113	=113	=113	=113	=113	=113	=113	=113
8F#\L	.	8a#X/	.	8ee\	.	.	.	2ryy	.
8F#\	.	4A#X/	.	4e/	.	.	.	.	.
8F#\	.	.	.	.	.	.	.	.	.
8F#\J	.	8a#/	.	8ee\	.	.	.	.	.
=114	=114	=114	=114	=114	=114	=114	=114	=114	=114
!LO:TX:a:t=P:problem:dodatkowy takt w vl I	!	!LO:TX:a:t=P:problem:dodatkowy takt w vl I	!	!LO:TX:a:t=P:problem:dodatkowy takt tylko w tym głosie	!	!LO:TX:a:t=P:problem:dodatkowy takt w vl I	!	!LO:TX:a:t=P:problem:dodatkowy takt w vl I	!
2ryy	.	2ryy	.	16cc#\LL	.	.	.	2ryy	.
.	.	.	.	16a#X\JJ	.	.	.	.	.
.	.	.	.	4f#/	.	.	.	.	.
.	.	.	.	8cc#\	.	.	.	.	.
=115	=115	=115	=115	=115	=115	=115	=115	=115	=115
8BB/L	.	4b\	.	4dd\	.	.	.	2ryy	.
8BB/	.	.	.	.	.	.	.	.	.
8BB/	.	8.b\L	.	8.dd\L	.	.	.	.	.
8BB/J	.	.	.	.	.	.	.	.	.
.	.	16cc#\Jk	.	16ee\Jk	.	.	.	.	.
=116	=116	=116	=116	=116	=116	=116	=116	=116	=116
!	!	!LO:TX:a:t=P:problem:mixed beam	!	!LO:TX:a:t=P:problem:mixed beam	!	!LO:TX:a:t=P:problem:dodatkowy takt, powinien być w takcie 114	!	!	!
8BB/L	.	8dd\L	.	8ff#\L	.	2ryy	.	2ryy	.
8D/	.	8d/	.	8d/	.	.	.	.	.
8C#/	.	8c#/	.	8c#/	.	.	.	.	.
8BB/J	.	8B/J	.	8B/J	.	.	.	.	.
=117	=117	=117	=117	=117	=117	=117	=117	=117	=117
!	!	!	!	!	!	!LO:N:vis=00	!	!	!
8F#\L	.	4cc#\	.	4ee\	.	0r	.	2ryy	.
8F#\	.	.	.	.	.	.	.	.	.
8F#\	.	8.a#X\L	.	8.cc#\L	.	.	.	.	.
8F#\J	.	.	.	.	.	.	.	.	.
.	.	16b\Jk	.	16dd\Jk	.	.	.	.	.
=118	=118	=118	=118	=118	=118	=118	=118	=118	=118
!	!	!	!	!LO:TX:a:t=P:problem:mixed beam	!	!	!	!	!
8F#\L	.	8cc#\L	.	8ee\L	.	.	.	2ryy	.
8A#X\	.	8a#X\	.	8a#X/	.	.	.	.	.
8G#X\	.	8g#X\	.	8g#/	.	.	.	.	.
8F#\J	.	8f#\J	.	8f#/J	.	.	.	.	.
=119	=119	=119	=119	=119	=119	=119	=119	=119	=119
!LO:TX:a:t=P:problem:mixed beam	!	!	!	!	!	!	!	!	!
8D\L	.	8f#/L	.	8b/L	.	.	.	2ryy	.
8E\	.	8gn/	.	8cc#/	.	.	.	.	.
8F#\	.	8d/	.	8f#/	.	.	.	.	.
8FF#/J	.	8c#/J	.	8a#X/J	.	.	.	.	.
=120	=120	=120	=120	=120	=120	=120	=120	=120	=120
4BB/	.	8d/L	.	8b/L	.	.	.	2ryy	.
.	.	(32f#/LL	.	32f#/LL	.	.	.	.	.
.	.	32e/	.	32e/	.	.	.	.	.
.	.	32d/	.	32d/	.	.	.	.	.
.	.	32c#/JJJ)	.	32c#/JJJ	.	.	.	.	.
4r	.	4B/	.	4B/	.	.	.	.	.
=121	=121	=121	=121	=121	=121	=121	=121	=121	=121
!	!	!	!LO:DY:a	!	!LO:DY:a	!	!	!	!
8BB/L	p	8dd#X\L	p	8ff#\L	p	4f#\	Sus-	2ryy	.
8BB/	.	8dd#\	.	8ff#\	.	.	.	.	.
8BB/	.	8dd#\	.	8ff#\	.	8d#X\	-ce-	.	.
8BB/J	.	8dd#\J	.	8ff#\J	.	8d#\	-pit	.	.
=122	=122	=122	=122	=122	=122	=122	=122	=122	=122
!	!	!LO:SIC:s=8dd#:v	!	!	!	!	!	!	!
8BB/L	.	8dd\L	.	8ff#\L	.	4B\	is-	2ryy	.
!	!	!LO:SIC:s=8dd#:v	!	!	!	!	!	!	!
8BB/	.	8dd\	.	8ff#\	.	.	.	.	.
!	!	!LO:SIC:s=8dd#:v	!	!	!	!	!	!	!
8BB/	.	8dd\	.	8ff#\	.	8A\	-ra-	.	.
!	!	!LO:SIC:s=8dd#:v	!	!	!	!	!	!	!
8BB/J	.	8dd\J	.	8ff#\J	.	8A\	-el	.	.
=123	=123	=123	=123	=123	=123	=123	=123	=123	=123
4D#X/	.	4.a/	.	4ccn\	.	4.cn\	pu-	2ryy	.
8r	.	.	.	8b\L	.	.	.	.	.
8BB/	.	(16gn/LL	.	8a\J	.	16B\	-e-	.	.
.	.	16f#/JJ)	.	.	.	16A\	-rum	.	.
=124	=124	=124	=124	=124	=124	=124	=124	=124	=124
8E\L	.	(16e/LL	.	16g/LL	.	16G/LL	su-	2ryy	.
.	.	16d#X/J)	.	16f#/J	.	16F#/JJ	.	.	.
16G\L	.	8e/J	.	8e/J	.	8E/	-um	.	.
16F#\JJ	.	.	.	.	.	.	.	.	.
16E\LL	.	4r	.	4r	.	4r	.	.	.
16Dn\	.	.	.	.	.	.	.	.	.
16C#\	.	.	.	.	.	.	.	.	.
16BB\JJ	.	.	.	.	.	.	.	.	.
=125	=125	=125	=125	=125	=125	=125	=125	=125	=125
8AA/L	.	8cc#\L	.	8ee\L	.	4e\	re-	2ryy	.
8AA/	.	8cc#\	.	8ee\	.	.	.	.	.
8AA/	.	8cc#\	.	8ee\	.	4c#X\	-cor-	.	.
8AA/J	.	8cc#\J	.	8ee\J	.	.	.	.	.
=126	=126	=126	=126	=126	=126	=126	=126	=126	=126
8AA/L	.	8cc#\L	.	8ee\L	.	4A/	-da-	2ryy	.
8AA/	.	8cc#\	.	8ee\	.	.	.	.	.
8AA/	.	8cc#\	.	8ee\	.	8Gn/	-tus	.	.
8AA/J	.	8cc#\J	.	8ee\J	.	8G/	mi-	.	.
!	!	!	!	!LO:LB:g=original	!	!	!	!	!
=127	=127	=127	=127	=127	=127	=127	=127	=127	=127
4C#/	.	4gn/	.	4b/	.	8B\	-se-	2ryy	.
.	.	.	.	.	.	8B\	-ri-	.	.
8r	.	8f#/L	.	8a/L	.	8A\	-cor-	.	.
8AA/	.	8e/J	.	8g/J	.	16G/	-di-	.	.
.	.	.	.	.	.	16G/	-ae	.	.
=128	=128	=128	=128	=128	=128	=128	=128	=128	=128
8D\L	.	16d/LL	.	16f#/LL	.	16F#/LL	su-	2ryy	.
.	.	16c#/J	.	16e/J	.	16E/JJ	.	.	.
8G\	.	8d/J	.	8d/J	.	8D/	-ae	.	.
8F#\	.	4r	.	4r	.	4r	.	.	.
8E\J	.	.	.	.	.	.	.	.	.
!	!	!	!	!	!	!LO:LB:g=original	!	!	!
=129	=129	=129	=129	=129	=129	=129	=129	=129	=129
8D\L	.	4f#/	.	4a/	.	4A\	si-	2ryy	.
8D\	.	.	.	.	.	.	.	.	.
8D\	.	(4f#/	.	(4dd\	.	8d\	-cut	.	.
8D\J	.	.	.	.	.	8d\	lo-	.	.
!	!	!LO:LB:g=original	!	!	!	!	!	!	!
=130	=130	=130	=130	=130	=130	=130	=130	=130	=130
8AA/L	.	4e/)	.	4cc#\)	.	4c#\	-cu-	2ryy	.
8AA/	.	.	.	.	.	.	.	.	.
8AA/	.	(4g/	.	(4ee\	.	4e\	-tus	.	.
8AA/J	.	.	.	.	.	.	.	.	.
=131	=131	=131	=131	=131	=131	=131	=131	=131	=131
8D\L	.	4f#/)	.	4dd\)	.	4d\	est	2ryy	.
8D\	.	.	.	.	.	.	.	.	.
8D\	.	(4dd\	.	(4ff#\	.	4f#\	pa-	.	.
8D\J	.	.	.	.	.	.	.	.	.
=132	=132	=132	=132	=132	=132	=132	=132	=132	=132
8AA/L	.	4cc#\)	.	4ee\)	.	4e\	-tre	2ryy	.
8AA/	.	.	.	.	.	.	.	.	.
8AA/	.	4ee\	.	4gg\	.	4g\	nos-	.	.
8AA/J	.	.	.	.	.	.	.	.	.
!LO:LB:g=original	!	!	!	!	!	!	!	!	!
=133	=133	=133	=133	=133	=133	=133	=133	=133	=133
8D\L	.	8dd\L	.	8ff#\L	.	8f#\L	-tras	2ryy	.
8D\	.	(16cc#\L	.	16ee\L	.	16e\L	.	.	.
.	.	16dd\JJ)	.	16ff#\JJ	.	16f#\JJ	.	.	.
!	!	!	!	!	!	!LO:SIC:l:s=Abraham:v	!	!	!
8C#\	.	8ee\L	.	8gg\L	.	8g\	a-	.	.
8D\J	.	8dd\J	.	8ff#\J	.	8f#\	-bra-	.	.
=134	=134	=134	=134	=134	=134	=134	=134	=134	=134
!LO:TX:a:t=P:problem:mixed beam	!	!	!	!	!	!	!	!	!
8A\L	.	8dd\L	.	8ff#\L	.	16f#\	-cham	2ryy	.
.	.	.	.	.	.	16f#\	et	.	.
8AA/J	.	8cc#\J	.	8ee\J	.	8e\	semini	.	.
4r	.	16a\LL	.	16a\LL	.	4r	.	.	.
.	.	16cc#\	.	16cc#\	.	.	.	.	.
.	.	16ee\	.	16ee\	.	.	.	.	.
.	.	16gg\JJ	.	16gg\JJ	.	.	.	.	.
=135	=135	=135	=135	=135	=135	=135	=135	=135	=135
!	!	!	!	!	!	!LO:SIC:l:s=Abraham:v	!	!	!
8D\L	.	4ff#\	.	4aa\	.	4a\	a-	2ryy	.
8D\	.	.	.	.	.	.	.	.	.
8D\	.	8.dd\L	.	8.ff#\L	.	8.f#\	-a-	.	.
8D\J	.	.	.	.	.	.	.	.	.
.	.	16ee\Jk	.	16gg\Jk	.	16g\	-bra-	.	.
=136	=136	=136	=136	=136	=136	=136	=136	=136	=136
!	!	!LO:TX:a:t=P:problem:mixed beam	!	!LO:TX:a:t=P:problem:mixed beam	!	!	!	!	!
8D\L	.	8ff#\L	.	8aa\L	.	4a\	-am	2ryy	.
8F#\	.	8f#/	.	8f#/	.	.	.	.	.
8E\	.	8e/	.	8e/	.	4r	.	.	.
8D\J	.	8d/J	.	8d/J	.	.	.	.	.
=137	=137	=137	=137	=137	=137	=137	=137	=137	=137
8AA/L	.	4ee\	.	4gg\	.	4g\	se-	2ryy	.
8AA/	.	.	.	.	.	.	.	.	.
8AA/	.	8.cc#\L	.	8.ee\L	.	8.e\L	-mi-	.	.
8AA/J	.	.	.	.	.	.	.	.	.
.	.	16dd\Jk	.	16ff#\Jk	.	16f#\Jk	.	.	.
=138	=138	=138	=138	=138	=138	=138	=138	=138	=138
!	!	!LO:TX:a:t=P:problem:mixed beam	!	!LO:TX:a:t=P:problem:mixed beam	!	!	!	!	!
8AA/L	.	8ee\L	.	8gg\L	.	4g\	-ni	2ryy	.
8C#/	.	8c#/	.	8c#/	.	.	.	.	.
8BB/	.	8B/	.	8B/	.	4r	.	.	.
8AA/J	.	8A/J	.	8A/J	.	.	.	.	.
=139	=139	=139	=139	=139	=139	=139	=139	=139	=139
!LO:TX:a:t=P:problem:mixed beam	!	!	!	!	!	!	!	!	!
8F#\L	.	8a/L	.	(32ff#\LLL	.	16f#\LL	e-	2ryy	.
.	.	.	.	32ee\JJ	.	.	.	.	.
.	.	.	.	8.dd\J)	.	16e\J	.	.	.
8G\	.	8b/	.	.	.	8d\J	.	.	.
8A\	.	8f#/	.	8a\L	.	8A\	-ius	.	.
8AA/J	.	8e/J	.	8cc#\J	.	8c#\	in	.	.
!	!	!	!	!	!	!LO:LB:g=original	!	!	!
=140	=140	=140	=140	=140	=140	=140	=140	=140	=140
8D\L	.	4f#/	.	4dd\	.	4d\	la	2ryy	.
8G\	.	.	.	.	.	.	.	.	.
8F#\	.	4r	.	4r	.	4r	.	.	.
8E\J	.	.	.	.	.	.	.	.	.
=141	=141	=141	=141	=141	=141	=141	=141	=141	=141
!	!LO:DY:a	!	!	!	!LO:DY:a	!	!	!	!
8D\L	p	4f#/	.	4a/	p	4A\	et	2ryy	.
8D\	.	.	.	.	.	.	.	.	.
8D\	.	8.d/L	.	8.f#/L	.	8.F#/	se-	.	.
8D\J	.	.	.	.	.	.	.	.	.
.	.	16e/Jk	.	16g/Jk	.	16G/	-mi-	.	.
=142	=142	=142	=142	=142	=142	=142	=142	=142	=142
8D\L	.	8f#/L	.	8a/L	.	4A\	-ni	2ryy	.
8F#\	.	8f#/	.	8f#/	.	.	.	.	.
8E\	.	8e/	.	8e/	.	4r	.	.	.
8D\J	.	8d/J	.	8d/J	.	.	.	.	.
!	!	!	!	!LO:LB:g=original	!	!	!	!	!
=143	=143	=143	=143	=143	=143	=143	=143	=143	=143
8AA/L	.	4e/	.	4g/	.	4G/	et	2ryy	.
8AA/	.	.	.	.	.	.	.	.	.
8AA/	.	8.c#/L	.	8.e/L	.	8.E/L	se-	.	.
8AA/J	.	.	.	.	.	.	.	.	.
.	.	16d/Jk	.	16f#/Jk	.	16F#/Jk	-mi-	.	.
=144	=144	=144	=144	=144	=144	=144	=144	=144	=144
8AA/L	.	8e/L	.	8g/L	.	4G/	-ni	2ryy	.
8C#/	.	8c#/	.	8c#/	.	.	.	.	.
8BB/	.	8B/	.	8B/	.	4r	.	.	.
8AA/J	.	8A/J	.	8A/J	.	.	.	.	.
=145	=145	=145	=145	=145	=145	=145	=145	=145	=145
!LO:TX:a:t=P:problem:mixed beam	!	!	!	!LO:TX:a:t=P:problem:mixed beam	!	!LO:TX:a:t=P:problem:mixed beam	!	!	!
8D\L	.	8f#/L	.	8f#/L	.	8F#/L	in	2ryy	.
8F#\	.	8f#/	.	8dd\	.	8d\J	.	.	.
!	!	!	!	!	!	!LO:SIC:l:s=sae:v	!	!	!
8A\	.	8c#/	.	8e/	.	8A\	se-	.	.
8AA/J	.	8e/J	.	8cc#\J	.	8c#\	-cu-	.	.
!	!	!LO:LB:g=original	!	!	!	!	!	!	!
=146	=146	=146	=146	=146	=146	=146	=146	=146	=146
8D\L	.	8f#/L	.	8dd\L	.	4d\	-la	2ryy	.
*Xtuplet	*	*	*	*	*	*	*	*	*
!LO:TUP:a:problem:klamra łukowa	!	!LO:TUP:a:problem:klamra łukowa	!	!	!	!	!	!	!
!	!	!LO:TX:a:t=P:problem:mixed beam	!	!	!	!	!	!	!
24F#\L	.	24ff#\L	.	24ff#\L	.	.	.	.	.
24E\	.	24ee\	.	24ee\	.	.	.	.	.
24D\JJ	.	24dd\JJ	.	24dd\JJ	.	.	.	.	.
8GG#X/L	.	8g#X/L	.	8g#X/L	.	4d\	in	.	.
*	*	*	*	*tuplet	*	*	*	*	*
!LO:TUP:a:problem:klamra łukowa,kropka zamiast numeru	!	!LO:TUP:b:problem:klamra łukowa	!	!LO:TUP:b:t=problem:klamra łukowa	!	!	!	!	!
24BB/L	.	24b/L	.	24b/L	.	.	.	.	.
24AA/	.	24a/	.	24a/	.	.	.	.	.
24GG#X/JJ	.	24g#/JJ	.	24g#/JJ	.	.	.	.	.
=147	=147	=147	=147	=147	=147	=147	=147	=147	=147
!LO:TX:b:t=Da capo	!	!LO:TX:b:t=Da capo	!	!	!	!LO:SIC:l:s=sae-:v	!	!	!
2AA;/	.	2a;/	.	2a;/	.	4d;\	se-	2ryy	.
.	.	.	.	.	.	8.eT\	.	.	.
.	.	.	.	.	.	16e\	-cu-	.	.
!LO:LB:g=original	!	!	!	!	!	!	!	!	!
=148	=148	=148	=148	=148	=148	=148	=148	=148	=148
!LO:TX:a:t=P:problem:takty 148-172 zapisane jako Da capo	!	!LO:TX:a:t=P:problem:takty 148-172 zapisane jako Da capo	!	!	!LO:DY:a	!	!	!	!
8D\Lyy	.	4dd\yy	.	4dd\	f	4d\	-la	2ryy	.
8F#\yy	.	.	.	.	.	.	.	.	.
8C#\yy	.	4aa\yy	.	4aa\	.	4r	.	.	.
8AA\Jyy	.	.	.	.	.	.	.	.	.
=149	=149	=149	=149	=149	=149	=149	=149	=149	=149
.	.	8qqgg/yy	.	8qqgg/	.	.	.	.	.
!	!	!	!	!	!	!LO:N:vis=00	!	!	!
8D\Lyy	.	16ff#\LLyy	.	16ff#\LL	.	0r	.	2ryy	.
.	.	16ee\Jyy	.	16ee\J	.	.	.	.	.
8E\yy	.	8dd\Jyy	.	8dd\J	.	.	.	.	.
8F#\yy	.	8ryy	.	8r	.	.	.	.	.
8F#\Jyy	.	8dd\yy	.	8dd\	.	.	.	.	.
=150	=150	=150	=150	=150	=150	=150	=150	=150	=150
8G\Lyy	.	(16ee\KLyy	.	(16ee\KL	.	.	.	2ryy	.
.	.	8.gg\J)yy	.	8.gg\J)	.	.	.	.	.
8E\yy	.	.	.	.	.	.	.	.	.
8G\yy	.	8b\Lyy	.	8b\L	.	.	.	.	.
8A\Jyy	.	8cc#\Jyy	.	8cc#\J	.	.	.	.	.
=151	=151	=151	=151	=151	=151	=151	=151	=151	=151
8D\Lyy	.	(16dd\LLyy	.	(16dd\LL	.	.	.	2ryy	.
.	.	16cc#\J)yy	.	16cc#\J)	.	.	.	.	.
8E\yy	.	8dd\Jyy	.	8dd\J	.	.	.	.	.
8F#\yy	.	8ryy	.	8r	.	.	.	.	.
!	!LO:DY:a	!	!LO:DY:a	!	!LO:DY:a	!	!	!	!
8F#\Jyy	p	8dd\yy	p	8dd\	p	.	.	.	.
=152	=152	=152	=152	=152	=152	=152	=152	=152	=152
8G\Lyy	.	8.ee\Lyy	.	(16ee\Lk	.	.	.	2ryy	.
.	.	.	.	8.ggJ)	.	.	.	.	.
8E\yy	.	.	.	.	.	.	.	.	.
.	.	16gg\Jkyy	.	.	.	.	.	.	.
8G\yy	.	8b\Lyy	.	8b\L	.	.	.	.	.
8A\Jyy	.	8cc#\Jyy	.	8cc#\J	.	.	.	.	.
=153	=153	=153	=153	=153	=153	=153	=153	=153	=153
!	!	!	!	!	!	!LO:N:vis=00	!	!	!
8D\Lyy	.	(16dd\LLyy	.	(16dd\LL	.	0r	.	2ryy	.
.	.	16cc#\J)yy	.	16cc#\J)	.	.	.	.	.
8D\Jyy	.	8dd\Jyy	.	8dd\J	.	.	.	.	.
!	!LO:DY:a	!	!	!	!	!	!	!	!
8F#\Lyy	f	4ryy	.	4r	.	.	.	.	.
8E\Jyy	.	.	.	.	.	.	.	.	.
=154	=154	=154	=154	=154	=154	=154	=154	=154	=154
!	!	!	!LO:DY:a:rj	!	!LO:DY:a	!	!	!	!
8D\Lyy	.	4ff#\yy	f	4ff#\	f	.	.	2ryy	.
8D\yy	.	.	.	.	.	.	.	.	.
8D\yy	.	(16ddd\KLyy	.	(16ddd\KL	.	.	.	.	.
.	.	8.ff#\J)yy	.	8.ff#\J)	.	.	.	.	.
8D\Jyy	.	.	.	.	.	.	.	.	.
=155	=155	=155	=155	=155	=155	=155	=155	=155	=155
8C#\Lyy	.	16ee\LLyy	.	(16ee\LL	.	.	.	2ryy	.
.	.	16aa\yy	.	16aa\	.	.	.	.	.
8C#\yy	.	16gg#X\yy	.	16gg#X\	.	.	.	.	.
.	.	16bb\JJyy	.	16bb\JJ)	.	.	.	.	.
8C#\yy	.	4aa\yy	.	4aa\	.	.	.	.	.
8C#\Jyy	.	.	.	.	.	.	.	.	.
=156	=156	=156	=156	=156	=156	=156	=156	=156	=156
8BB\Lyy	.	4e/yy	.	4e/	.	.	.	2ryy	.
8BB\yy	.	.	.	.	.	.	.	.	.
8E\yy	.	4dd\yy	.	4dd\	.	.	.	.	.
8E\Jyy	.	.	.	.	.	.	.	.	.
!	!	!	!	!LO:LB:g=original	!	!	!	!	!
=157	=157	=157	=157	=157	=157	=157	=157	=157	=157
!	!	!	!	!	!	!LO:N:vis=00	!	!	!
8AA/Lyy	.	8cc#\Lyy	.	8cc#\L	.	0r	.	2ryy	.
8C#/yy	.	16aa\Lyy	.	16aa\L	.	.	.	.	.
.	.	16ee\JJyy	.	16ee\JJ	.	.	.	.	.
8D/yy	.	4ff#\yy	.	4ff#\	.	.	.	.	.
8DD/Jyy	.	.	.	.	.	.	.	.	.
=158	=158	=158	=158	=158	=158	=158	=158	=158	=158
8AA/Lyy	.	8ee\Lyy	.	8ee\L	.	.	.	2ryy	.
8C#/yy	.	16aa\Lyy	.	16aa\L	.	.	.	.	.
.	.	16cc#\JJyy	.	16cc#\JJ	.	.	.	.	.
8BB/yy	.	4dd\yy	.	4dd\	.	.	.	.	.
8E/Jyy	.	.	.	.	.	.	.	.	.
=159	=159	=159	=159	=159	=159	=159	=159	=159	=159
*	*	*	*	*Xtuplet	*	*	*	*	*
!LO:TX:a:t=P:problem:mixed beam	!	!LO:TUP:a:problem:klamra łukowa	!	!LO:TUP:a:problem:klamra łukowa	!	!	!	!	!
8AA/Lyy	.	24cc#\LLyy	.	24cc#\LL	.	.	.	2ryy	.
.	.	24aa\yy	.	24aa\	.	.	.	.	.
.	.	24ee\JJyy	.	24ee\JJ	.	.	.	.	.
!	!	!LO:TUP:a:problem:klamra łukowa	!	!LO:TUP:a:problem:klamra łukowa	!	!	!	!	!
8D\yy	.	24ff#\LLyy	.	24ff#\LL	.	.	.	.	.
.	.	24dd\yy	.	24dd\	.	.	.	.	.
.	.	24b\JJyy	.	24b\JJ	.	.	.	.	.
8E\yy	.	8a\Lyy	.	8a\L	.	.	.	.	.
8EE/Jyy	.	8bT\Jyy	.	8bT\J	.	.	.	.	.
=160	=160	=160	=160	=160	=160	=160	=160	=160	=160
!LO:TX:a:t=P:problem:mixed beam	!	!	!	!	!	!	!	!	!
8AA/Lyy	.	4a/yy	.	4a/	.	.	.	2ryy	.
16A\Lyy	.	.	.	.	.	.	.	.	.
16Gn\JJyy	.	.	.	.	.	.	.	.	.
8F#\Lyy	.	4ryy	.	4r	.	.	.	.	.
8E\Jyy	.	.	.	.	.	.	.	.	.
=161	=161	=161	=161	=161	=161	=161	=161	=161	=161
!	!	!	!	!	!	!LO:N:vis=00	!	!	!
8D\Lyy	.	4ff#\yy	.	4aa\	.	0r	.	2ryy	.
8D\yy	.	.	.	.	.	.	.	.	.
8D\yy	.	8.dd\Lyy	.	8.ff#\L	.	.	.	.	.
8D\Jyy	.	.	.	.	.	.	.	.	.
.	.	16ee\Jkyy	.	16gg\Jk	.	.	.	.	.
!	!	!LO:LB:g=original	!	!	!	!	!	!	!
=162	=162	=162	=162	=162	=162	=162	=162	=162	=162
!	!	!LO:TX:a:t=P:problem:mixed beam	!	!LO:TX:a:t=P:problem:mixed beam	!	!	!	!	!
8D\Lyy	.	8ff#\Lyy	.	8aa\L	.	.	.	2ryy	.
8F#\yy	.	8f#/yy	.	8f#/	.	.	.	.	.
8E\yy	.	8e/yy	.	8e/	.	.	.	.	.
8D\Jyy	.	8d/Jyy	.	8d/J	.	.	.	.	.
=163	=163	=163	=163	=163	=163	=163	=163	=163	=163
8AA/Lyy	.	4ee\yy	.	4gg\	.	.	.	2ryy	.
8AA/yy	.	.	.	.	.	.	.	.	.
8AA/yy	.	8.cc#\Lyy	.	8.ee\L	.	.	.	.	.
8AA/Jyy	.	.	.	.	.	.	.	.	.
.	.	16dd\Jkyy	.	16ff#\Jk	.	.	.	.	.
=164	=164	=164	=164	=164	=164	=164	=164	=164	=164
!	!	!LO:TX:a:t=P:problem:mixed beam	!	!LO:TX:a:t=P:problem:mixed beam	!	!	!	!	!
8AA/Lyy	.	8ee\Lyy	.	8gg\L	.	.	.	2ryy	.
8C#/yy	.	8c#/yy	.	8c#/	.	.	.	.	.
8BB/yy	.	8B/yy	.	8B/	.	.	.	.	.
8AA/Jyy	.	8A/Jyy	.	8A/J	.	.	.	.	.
=165	=165	=165	=165	=165	=165	=165	=165	=165	=165
!LO:TX:a:t=P:problem:mixed beam	!	!	!	!LO:TX:a:t=P:problem:mixed beam	!	!LO:N:vis=00	!	!	!
8D\Lyy	.	8f#/Lyy	.	8f#/L	.	0r	.	2ryy	.
8F#\yy	.	8f#/yy	.	8dd\	.	.	.	.	.
8A\yy	.	8c#/yy	.	8e/	.	.	.	.	.
8AA/Jyy	.	8d/Jyy	.	8cc#\J	.	.	.	.	.
=166	=166	=166	=166	=166	=166	=166	=166	=166	=166
8D\Lyy	.	4f#/yy	.	4dd\	.	.	.	2ryy	.
8G\yy	.	.	.	.	.	.	.	.	.
8F#\yy	.	4ryy	.	4r	.	.	.	.	.
8E\Jyy	.	.	.	.	.	.	.	.	.
!LO:LB:g=original	!	!	!	!	!	!	!	!	!
=167	=167	=167	=167	=167	=167	=167	=167	=167	=167
!	!	!	!LO:DY:a	!	!	!	!	!	!
8D\Lyy	.	4f#/yy	p	4a/	.	.	.	2ryy	.
8D\yy	.	.	.	.	.	.	.	.	.
8D\yy	.	8.d/Lyy	.	8.f#/L	.	.	.	.	.
8D\Jyy	.	.	.	.	.	.	.	.	.
.	.	16e/Jkyy	.	16g/Jk	.	.	.	.	.
=168	=168	=168	=168	=168	=168	=168	=168	=168	=168
8D\Lyy	.	8f#/Lyy	.	8a/L	.	.	.	2ryy	.
8F#\yy	.	8f#/yy	.	8f#/	.	.	.	.	.
8E\yy	.	8e/yy	.	8e/	.	.	.	.	.
8D\Jyy	.	8d/Jyy	.	8d/J	.	.	.	.	.
=169	=169	=169	=169	=169	=169	=169	=169	=169	=169
!	!	!	!	!	!	!LO:N:vis=00	!	!	!
8AA/Lyy	.	4e/yy	.	4g/	.	0r	.	2ryy	.
8AA/yy	.	.	.	.	.	.	.	.	.
8AA/yy	.	8.c#/Lyy	.	8.e/L	.	.	.	.	.
8AA/Jyy	.	.	.	.	.	.	.	.	.
.	.	16d/Jkyy	.	16f#/Jk	.	.	.	.	.
=170	=170	=170	=170	=170	=170	=170	=170	=170	=170
8AA/Lyy	.	8e/Lyy	.	8g/L	.	.	.	2ryy	.
8C#/yy	.	8c#/yy	.	8c#/	.	.	.	.	.
8BB/yy	.	8B/yy	.	8B/	.	.	.	.	.
8AA/Jyy	.	8A/Jyy	.	8A/J	.	.	.	.	.
=171	=171	=171	=171	=171	=171	=171	=171	=171	=171
!LO:TX:a:t=P:problem:mixed beam	!	!	!LO:DY:a	!LO:TX:a:t=P:problem:mixed beam	!	!	!	!	!
8D\Lyy	f	8f#/Lyy	f	8f#/L	f	.	.	2ryy	.
8F#\yy	.	8f#/yy	.	8dd\	.	.	.	.	.
8A\yy	.	8c#/yy	.	8e/	.	.	.	.	.
8AA/Jyy	.	8e/Jyy	.	8cc#\J	.	.	.	.	.
!	!	!	!	!LO:LB:g=original	!	!	!	!	!
=172	=172	=172	=172	=172	=172	=172	=172	=172	=172
4D;;\yy	.	8f#/Lyy	.	8dd\L	.	.	.	2ryy	.
.	.	32a/LLyy	.	32a\LL	.	.	.	.	.
.	.	32g/yy	.	32g\	.	.	.	.	.
.	.	32f#/yy	.	32f#\	.	.	.	.	.
.	.	32e/JJJyy	.	32e\JJJ	.	.	.	.	.
4ryy	.	4d;;/yy	.	4d/	.	.	.	.	.
!	!	!	!	!	!	!LO:LB:g=original	!	!	!
=173||	=173||	=173||	=173||	=173||	=173||	=173||	=173||	=173||	=173||
*M4/4	*	*M4/4	*	*M4/4	*	*M4/4	*	*M4/4	*
*met(c)	*	*met(c)	*	*met(c)	*	*met(c)	*	*met(c)	*
!LO:TX:a:t=adagio	!	!LO:TX:a:t=adagio	!	!LO:TX:a:t=adagio	!	!LO:TX:a:t=adagio	!	!LO:TX:a:t=adagio	!
!LO:TX:b:t=Gloria Pa&colon;	!	!LO:TX:b:t=Gloria Pa	!	!LO:TX:b:t=Gloria	!	!	!	!	!
4D\	.	4ff#\	.	8.aa\L	.	4A\	Glo-	4ff#\	Glo-
.	.	.	.	16dd\Jk	.	.	.	.	.
4D\	.	4ff#\	.	4ddd\	.	8A\	-ri-	8ff#\	-ri-
.	.	.	.	.	.	8A\	-a	8ff#\	-a
4A\	.	4ee\	.	4ccc#\	.	4c#\	Pa-	4ee\	Pa-
4A\	.	4ee\	.	4ccc#\	.	4c#\	-tri	4ee\	-tri
=174	=174	=174	=174	=174	=174	=174	=174	=174	=174
4B\	.	4dd\	.	8.ff#\L	.	4F#/	glo-	4dd\	Glo-
.	.	.	.	16b\Jk	.	.	.	.	.
4B\	.	4dd\	.	4bb\	.	8.F#/	-ri-	8dd\	-ri-
.	.	.	.	.	.	.	.	8dd\	-a
!	!	!	!	!	!	!LO:N:vis=8	!	!	!
.	.	.	.	.	.	16F#/	-a	.	.
4F#\	.	4cc#\	.	4aa#X\	.	8.A#X\	fi-	8.cc#\	fi-
.	.	.	.	.	.	16A#\	-li-	16cc#\	-li-
4F#\	.	4cc#\	.	4aa#\	.	4A#\	-o	4cc#\	-o
=175	=175	=175	=175	=175	=175	=175	=175	=175	=175
4G\	.	4b\	.	8.dd\L	.	4d\	et	4b\	et
.	.	.	.	16g\Jk	.	.	.	.	.
4G\	.	4b\	.	4gg\	.	4d\	spi-	4b\	Spi-
4D\	.	4a\	.	4ff#\	.	8.d\	-ri-	8.a\	-ri-
.	.	.	.	.	.	16d\	-tu-	16a\	-tu-
4D\	.	4a\	.	4ff#\	.	4d\	-i	4a\	-i
=176	=176	=176	=176	=176	=176	=176	=176	=176	=176
4D\	.	4ff#\	.	4aa\	.	4A\	et	4ff#\	et
8F#\L	.	4ff#\	.	4ddd\	.	4A\	spi-	4ff#\	Spi-
8G\J	.	.	.	.	.	.	.	.	.
4A\	.	4ee\	.	4ccc#\	.	4c#\	-ri-	4ee\	-ri-
4D\	.	4ff#\	.	4ddd\	.	8d\	-tu-	8ff#\	-tu-
.	.	.	.	.	.	8d\	-i	8ff#\	-i
=177	=177	=177	=177	=177	=177	=177	=177	=177	=177
4A\	.	2ee\	.	2ccc#\	.	2c#\	San-	2ee\	San-
4AA/	.	.	.	.	.	.	.	.	.
4D\	.	4ff#\	.	4ddd\	.	4d\	-cto	4ff#\	-cto
!	!	!LO:TX:a:t=Allo	!	!LO:TX:a:t=allo	!	!LO:TX:a:t=allo	!	!LO:TX:a:t=allo	!
8r	.	8ff#\L	.	8aa\L	.	8d\	si-	8ff#\	Si-
!LO:TX:a:t=Allo	!	!	!	!	!	!	!	!	!
8D\	.	8ff#\J	.	8ddd\J	.	8d\	-cut	8ff#\	-cut
!	!	!	!	!	!	!	!	!LO:LB:g=original	!
=178	=178	=178	=178	=178	=178	=178	=178	=178	=178
4A\	.	8ee\L	.	16ccc#\LL	.	8c#\	e-	8ee\	e-
.	.	.	.	16aa\	.	.	.	.	.
.	.	8gg\	.	16bb\	.	8e\	-rat	8gg\	-rat
.	.	.	.	16gg\JJ	.	.	.	.	.
4AA/	.	8ff#\	.	16aa\LL	.	8d\	in	8ff#\	in
.	.	.	.	16ff#\	.	.	.	.	.
.	.	8ee\J	.	16gg\	.	8c#\	prin-	8ee\	prin-
.	.	.	.	16ee\JJ	.	.	.	.	.
!	!	!LO:TX:a:t=P:problem:mixed beam	!	!	!	!LO:LB:g=original	!	!	!
4D\	.	8dd\L	.	16ff#\LL	.	16d\	-ci-	16ff#\	-ci-
.	.	.	.	16ee\J	.	16d\	-pi-	16ff#\	-pi-
.	.	8f#/	.	8dd\J	.	8d\	-o	8ff#\	-o
8r	.	8f#/	.	8a\L	.	4d\	et	4ff#\	et
8D\	.	8f#/J	.	8dd\J	.	.	.	.	.
!	!	!	!	!LO:LB:g=original	!	!	!	!	!
=179	=179	=179	=179	=179	=179	=179	=179	=179	=179
4A\	.	8e/L	.	16cc#\LL	.	8c#\	nunc	8ee\	nunc
.	.	.	.	16a\	.	.	.	.	.
.	.	8g/	.	16b\	.	8e\	et	8gg\	et
.	.	.	.	16g\JJ	.	.	.	.	.
4AA/	.	8f#/	.	16a/LL	.	8d\	nunc	8ff#\	nunc
.	.	.	.	16f#/	.	.	.	.	.
.	.	8e/J	.	16g/	.	8c#\	et	8ee\	et
.	.	.	.	16e/JJ	.	.	.	.	.
4D\	.	16d/LL	.	16f#/LL	.	8d\	sem-	8ff#\	Sem-
.	.	16c#/J	.	16e/J	.	.	.	.	.
.	.	8d/J	.	8d/J	.	8d\	-per	8ff#\	-per
8F#\L	.	8dd\L	.	16.aa\LL	.	8d\	et	8ff#\	et
!	!	!	!	!LO:N:vis=32	!	!	!	!	!
.	.	.	.	(64gg\LL	.	.	.	.	.
!	!	!	!	!LO:N:vis=32	!	!	!	!	!
.	.	.	.	64aa\JJJJ)	.	.	.	.	.
8G\J	.	8dd\J	.	16bb\LL	.	8d\	in	8ff#\	in
.	.	.	.	16dd\JJ	.	.	.	.	.
=180	=180	=180	=180	=180	=180	=180	=180	=180	=180
!LO:TX:a:t=P:problem:mixed beam	!	!LO:TX:a:t=P:problem:mixed beam	!	!	!	!LO:SIC:l:s=sae:v	!	!	!
8A\L	.	8e/L	.	16cc#\LL	.	8c#\	se-	8ee\	Sae-
.	.	.	.	16b\J	.	.	.	.	.
8AA/	.	8e/	.	8a\J	.	16c#\	-cu-	16ee\	-cu-
.	.	.	.	.	.	16c#\	-la	16ee\	-la
!	!	!	!	!LO:TUP:a:problem:klamra łukowa	!	!LO:SIC:l:s=sae:v	!	!	!
8A\	.	8cc#\	.	24ee\LL	.	8c#\	se-	8ee\	Sae-
.	.	.	.	24dd\	.	.	.	.	.
.	.	.	.	24cc#\JJ	.	.	.	.	.
!	!	!	!	!LO:TUP:a:problem:klamra łukowa	!	!	!	!	!
8c#\J	.	8ee\J	.	24b\LL	.	8c#\	-cu-	8ee\	-cu-
.	.	.	.	24a\	.	.	.	.	.
.	.	.	.	24g\JJ	.	.	.	.	.
!LO:LB:g=original	!	!	!	!	!	!	!	!	!
!LO:TX:a:t=P:problem:mixed beam	!	!LO:TX:a:t=P:problem:mixed beam	!	!LO:TX:a:t=P:problem:mixed beam	!	!	!	!	!
8d\L	.	16f#/LL	.	16f#/LL	.	8A\	-lo-	8ff#\	-lo-
.	.	16dd\	.	16dd\	.	.	.	.	.
8G\	.	16b\	.	16b\	.	8B\	-rum	8ee\	-rum
.	.	16bb\JJ	.	16bb\JJ	.	.	.	.	.
.	.	8qqdd/	.	8qqdd/	.	.	.	8qqdd/	.
8A\	.	4cc#t\	.	4cc#\	.	4E/	a-	4cc#\	a-
8AA/J	.	.	.	.	.	.	.	.	.
=181	=181	=181	=181	=181	=181	=181	=181	=181	=181
4D\	.	4dd\	.	4dd\	.	4F#/	men	4dd\	-men
4A\	.	4ee\	.	4ccc#\	.	4c#\	a-	4ee\	a-
4D\	.	4ff#\	.	4ddd\	.	4d\	-men	4ff#\	-men
4r	.	4r	.	4r	.	4r	.	4r	.
==	==	==	==	==	==	==	==	==	==
*-	*-	*-	*-	*-	*-	*-	*-	*-	*-
!!!system-decoration: [g1][g2]s5
!!!RDF**kern: > = above
!!!RDF**kern: < = below
!!!RDF**dynam: f = "for"
!!!RDF**dynam: p = "pia"
!!!AIN: 1 empty 1 tenor 2 violn 1 vox
!!!ENC: Marta Lawrence
!!!END: 2020-09-10
!!!ENC: Andrzej Gręziak
!!!END: 2020-05-16
